(3003_Chen_CAM_3.nc)
(T1  D=2 CR=0.05 - ZMIN=-0.04 - face mill)
(T2  D=0.5 CR=0 - ZMIN=-0.695 - flat end mill)
(T3  D=0.25 CR=0 - ZMIN=-0.695 - flat end mill)
(T5  D=0.375 CR=0 - ZMIN=-0.415 - flat end mill)
N10 G90
N15 G17
N20 G20
(Face1)
N25 T1 M6
(Max Depth of Cut = 0.100")
N30 T2
N35 S2500 M3
N40 M8
N45 G0 X5.38 Y-0.79
N50 Z0.6
N55 Z0.2
N60 G1 Z0.16 F40
N65 G18 G3 X5.18 Z-0.04 I-0.2 K0
N70 G1 X4.08
N75 X0
N80 G3 X-0.2 Z0.16 I0 K0.2
N85 G0 Z0.6
N90 G17
(2D Adaptive1)
N95 M9
N100 T2 M6
N105 T5
N110 S3056 M3
N115 M8
N120 G0 X-0.4197 Y-1.9707
N125 Z0.6
N130 Z-0.595
N135 G1 Z-0.645 F36
N140 X-0.4195 Y-1.9706 Z-0.6506
N145 X-0.4187 Y-1.9701 Z-0.6561
N150 X-0.4174 Y-1.9692 Z-0.6615
N155 X-0.4155 Y-1.9681 Z-0.6667
N160 X-0.4133 Y-1.9666 Z-0.6716
N165 X-0.4105 Y-1.9649 Z-0.6762
N170 X-0.4074 Y-1.9629 Z-0.6804
N175 X-0.4038 Y-1.9606 Z-0.6841
N180 X-0.4 Y-1.9582 Z-0.6873
N185 X-0.3958 Y-1.9555 Z-0.69
N190 X-0.3915 Y-1.9528 Z-0.6922
N195 X-0.3869 Y-1.9499 Z-0.6937
N200 X-0.3823 Y-1.9469 Z-0.6947
N205 X-0.3775 Y-1.9439 Z-0.695
N210 G17 G3 X-0.1628 Y-1.7721 I-0.6853 J1.0769
N215 G1 X-0.1605 Y-1.7697
N220 G3 X-0.1514 Y-1.3968 I-6.8536 J0.3539
N225 G1 X-0.1509 Y-1.3435
N230 X-0.1506 Y-1.2902
N235 X-0.1504 Y-1.2092
N240 X-0.1515 Y-1.192
N245 X-0.1549 Y-1.1751
N250 X-0.1604 Y-1.1588
N255 X-0.1643 Y-1.1496
N260 G2 X-0.2045 Y-1.0145 I1.9807 J0.6627
N265 G1 X-0.208 Y-0.9995
N270 G2 X-0.2254 Y-0.8798 I6.2886 J0.9764
N275 G1 X-0.2278 Y-0.8498
N280 G2 Y-0.7302 I7.5024 J0.0608
N285 G1 X-0.2254 Y-0.7002
N290 G2 X-0.208 Y-0.5805 I4.301 J-0.5663
N295 G1 X-0.2044 Y-0.5656
N300 X-0.2006 Y-0.5506
N305 X-0.1965 Y-0.5356
N310 X-0.1855 Y-0.4908
N315 X-0.1771 Y-0.4478
N320 G3 X-0.1576 Y-0.2357 I-1.6954 J0.2632
N325 G1 X-0.1554 Y-0.1825
N330 X-0.1496 Y-0.1295
N335 X-0.1297 Y-0.0801
N340 X-0.0996 Y-0.0361
N345 X-0.062 Y0.0017
N350 X-0.0192 Y0.0334
N355 X0.0274 Y0.0594
N360 X0.0764 Y0.0803
N365 X0.127 Y0.0969
N370 X0.1787 Y0.1098
N375 G2 X0.3582 Y0.1354 I0.3114 J-1.5436
N380 G1 X0.3718 Y0.1391
N385 X0.385 Y0.144
N390 X0.4205 Y0.1592
N395 G2 X0.4805 Y0.181 I0.1833 J-0.4121
N400 X0.6004 Y0.212 I0.6963 J-2.4405
N405 X0.7504 Y0.2291 I0.3493 J-2.3948
N410 X0.9004 Y0.2239 I-0.0149 J-2.5695
N415 G1 X0.9154 Y0.2217
N420 X1.0203 Y0.203
N425 X1.0503 Y0.1957
N430 X1.0586 Y0.1933
N435 X1.0963 Y0.1843
N440 X1.1413 Y0.1758
N445 G3 X1.3536 Y0.1572 I0.264 J1.7926
N450 X1.8331 Y0.1507 I0.4058 J12.2619
N455 G1 X1.9397 Y0.1502
N460 X2.0996 Y0.1501
N465 X2.4193 Y0.15
N470 X2.8704
N475 X2.8846 Y0.1508
N480 X2.8986 Y0.1531
N485 X2.9123 Y0.1569
N490 G2 X3.0296 Y0.1958 I1.2375 J-3.5403
N495 G1 X3.0597 Y0.203
N500 X3.1646 Y0.2217
N505 X3.1796 Y0.2237
N510 G2 X3.3296 Y0.229 I0.1504 J-2.1493
N515 X3.4795 Y0.2119 I-0.1615 J-2.0872
N520 X3.5545 Y0.193 I-0.3132 J-1.4003
N525 G3 X3.7918 Y0.1604 I0.299 J1.2973
N530 G1 X3.845 Y0.1575
N535 X3.8982 Y0.1555
N540 X3.9512 Y0.1495
N545 X4.0006 Y0.1294
N550 X4.0444 Y0.0991
N555 X4.0821 Y0.0615
N560 X4.1138 Y0.0186
N565 X4.1397 Y-0.028
N570 X4.1606 Y-0.077
N575 X4.1771 Y-0.1277
N580 X4.19 Y-0.1794
N585 G2 X4.2137 Y-0.3429 I-1.3004 J-0.2723
N590 G1 X4.2158 Y-0.3576
N595 X4.2195 Y-0.3721
N600 X4.2249 Y-0.386
N605 G2 X4.2541 Y-0.4608 I-0.4249 J-0.209
N610 G1 X4.2765 Y-0.5356
N615 G2 X4.2926 Y-0.6105 I-0.4496 J-0.1358
N620 G1 X4.3043 Y-0.6901
N625 X4.3054 Y-0.7002
N630 X4.3078 Y-0.7302
N635 G2 X4.3079 Y-0.8498 I-7.4935 J-0.0608
N640 G1 X4.3054 Y-0.8798
N645 G2 X4.2879 Y-0.9995 I-4.4537 J0.5898
N650 G1 X4.2843 Y-1.0144
N655 X4.2806 Y-1.0294
N660 X4.2765 Y-1.0444
N665 X4.2655 Y-1.0893
N670 X4.2571 Y-1.1323
N675 G3 X4.2376 Y-1.3445 I1.6981 J-0.2632
N680 G1 X4.2354 Y-1.3977
N685 X4.2296 Y-1.4507
N690 X4.2096 Y-1.5001
N695 X4.1794 Y-1.544
N700 X4.1418 Y-1.5818
N705 X4.099 Y-1.6135
N710 X4.0524 Y-1.6395
N715 X4.0034 Y-1.6604
N720 X3.9528 Y-1.6769
N725 X3.9011 Y-1.6899
N730 G2 X3.7358 Y-1.7138 I-0.2723 J1.2972
N735 G1 X3.7219 Y-1.7157
N740 X3.7082 Y-1.7191
N745 X3.695 Y-1.724
N750 X3.6595 Y-1.7392
N755 G2 X3.5995 Y-1.761 I-0.1833 J0.4122
N760 X3.4796 Y-1.792 I-0.6963 J2.4408
N765 X3.3296 Y-1.8091 I-0.3493 J2.3949
N770 X3.1796 Y-1.8039 I0.0149 J2.5695
N775 G1 X3.1646 Y-1.8017
N780 X3.0597 Y-1.783
N785 X3.0297 Y-1.7757
N790 X3.0214 Y-1.7733
N795 X2.9837 Y-1.7643
N800 X2.9387 Y-1.7558
N805 G3 X2.7264 Y-1.7372 I-0.264 J-1.7925
N810 X2.2469 Y-1.7307 I-0.4058 J-12.2616
N815 G1 X2.1403 Y-1.7302
N820 X1.9804 Y-1.7301
N825 X1.6607 Y-1.73
N830 X1.2096
N835 X1.1954 Y-1.7308
N840 X1.1814 Y-1.7331
N845 X1.1677 Y-1.7369
N850 G2 X1.0504 Y-1.7758 I-1.2376 J3.5405
N855 G1 X1.0203 Y-1.783
N860 X0.9154 Y-1.8017
N865 X0.9004 Y-1.8037
N870 G2 X0.7504 Y-1.809 I-0.1504 J2.149
N875 X0.6005 Y-1.7919 I0.1615 J2.0868
N880 X0.5255 Y-1.773 I0.3132 J1.4003
N885 G3 X0.2882 Y-1.7404 I-0.299 J-1.2973
N890 G1 X0.235 Y-1.7374
N895 X0.1849 Y-1.7194
N900 X0.1401 Y-1.6906
N905 X0.1014 Y-1.6539
N910 X0.069 Y-1.6116
N915 X0.0424 Y-1.5654
N920 X0.0209 Y-1.5166
N925 X0.004 Y-1.4661
N930 G3 X-0.0204 Y-1.4087 I-0.1448 J-0.0276
N935 G2 X-0.0937 Y-1.2987 I1.9888 J1.4056
N940 G1 X-0.1021 Y-1.2837
N945 G2 X-0.1604 Y-1.1588 I1.7805 J0.9073
N950 G1 X-0.1609 Y-1.158
N955 X-0.1617 Y-1.1574
N960 G2 X-0.2983 Y-1.0239 I0.1808 J0.3216
N965 X-0.3052 Y-1.0013 I0.043 J0.0255
N970 G1 X-0.3222 Y-0.7088
N975 G2 X-0.3179 Y-0.6855 I0.0499 J0.0029
N980 X-0.1976 Y-0.5372 I0.337 J-0.1503
N985 G1 X-0.197 Y-0.5365
N990 X-0.1965 Y-0.5356
N995 X-0.1741 Y-0.4608
N1000 G2 X-0.1448 Y-0.3861 I0.4344 J-0.1272
N1005 G1 X-0.1239 Y-0.3411
N1010 X-0.1038 Y-0.2918
N1015 X-0.0808 Y-0.2437
N1020 X-0.0516 Y-0.1991
N1025 X-0.017 Y-0.1586
N1030 X0.0104 Y-0.1336
N1035 X0.0137 Y-0.1305
N1040 X0.0169 Y-0.1273
N1045 X0.0199 Y-0.124
N1050 G3 X0.0112 Y-0.0519 I-0.0385 J0.0319
N1055 X-0.0603 Y-0.0645 I-0.0298 J-0.0402
N1060 G1 X-0.2102 Y-0.2908
N1065 G3 X-0.1937 Y-0.3616 I0.0417 J-0.0276
N1070 X-0.1239 Y-0.3411 I0.0252 J0.0432
N1075 G1 X-0.11 Y-0.3112
N1080 X-0.1021 Y-0.2963
N1085 X-0.0937 Y-0.2813
N1090 G2 X-0.0244 Y-0.1766 I3.0512 J-1.9459
N1095 G1 X-0.0143 Y-0.1629
N1100 G2 X0.0756 Y-0.0621 I3.827 J-3.3211
N1105 G1 X0.0906 Y-0.0481
N1110 G2 X0.1877 Y0.0329 I2.0424 J-2.3481
N1115 G1 X0.2106 Y0.0488
N1120 X0.2856 Y0.0949
N1125 G2 X0.3605 Y0.1334 I0.2268 J-0.3493
N1130 G1 X0.3807 Y0.1421
N1135 X0.385 Y0.144
N1140 X0.3858 Y0.1445
N1145 X0.3863 Y0.1453
N1150 G2 X0.5297 Y0.2951 I0.3512 J-0.1926
N1155 X0.552 Y0.3022 I0.0259 J-0.0427
N1160 G1 X0.8703 Y0.3255
N1165 G2 X0.8934 Y0.3217 I0.0036 J-0.0499
N1170 X1.0571 Y0.1943 I-0.1559 J-0.369
N1175 G1 X1.0577 Y0.1937
N1180 X1.0586 Y0.1933
N1185 G2 X1.1801 Y0.1526 I-1.5685 J-4.8912
N1190 G1 X1.2902 Y0.1117
N1195 X1.3302 Y0.0991
N1200 X1.3626 Y0.0906
N1205 X1.4048 Y0.0817
N1210 G3 X1.6166 Y0.0596 I0.2731 J1.5869
N1215 X2.0428 Y0.0512 I0.3876 J8.8747
N1220 G1 X2.2232 Y0.0503
N1225 X2.4035 Y0.05
N1230 X2.5838 Y0.0504
N1235 X2.5957 Y0.0522
N1240 X2.6073 Y0.055
N1245 X2.6998 Y0.0812
N1250 X2.7378 Y0.0927
N1255 X2.7448 Y0.095
N1260 X2.8999 Y0.1526
N1265 X2.9111 Y0.1565
N1270 X2.9123 Y0.1569
N1275 G3 X2.8931 Y0.2537 I-0.0178 J0.0467
N1280 G1 X1.3078 Y0.2079
N1285 G3 X1.2902 Y0.1117 I0.0014 J-0.05
N1290 G1 X1.3352 Y0.095
N1295 X1.3422 Y0.0927
N1300 X1.3802 Y0.0812
N1305 X1.5002 Y0.0472
N1310 X1.5152 Y0.0436
N1315 X1.5452 Y0.0368
N1320 X1.6651 Y0.0128
N1325 X1.6801 Y0.0103
N1330 X1.7101 Y0.0055
N1335 X1.8301 Y-0.0088
N1340 X1.8451 Y-0.0103
N1345 X1.8751 Y-0.0133
N1350 X2.025 Y-0.0192
N1355 X2.04 Y-0.0198
N1360 X2.07 Y-0.0186
N1365 X2.2049 Y-0.0133
N1370 X2.2349 Y-0.0103
N1375 X2.2499 Y-0.0088
N1380 X2.3699 Y0.0055
N1385 X2.3999 Y0.0103
N1390 X2.4149 Y0.0128
N1395 X2.5348 Y0.0368
N1400 X2.5648 Y0.0436
N1405 X2.5798 Y0.0472
N1410 X2.6073 Y0.055
N1415 X2.6082 Y0.0554
N1420 X2.6089 Y0.0561
N1425 X2.6093 Y0.057
N1430 G2 X2.6966 Y0.22 I0.5059 J-0.166
N1435 X2.7287 Y0.2386 I0.0393 J-0.0309
N1440 G1 X3.3867 Y0.3343
N1445 G2 X3.4227 Y0.3256 I0.0072 J-0.0495
N1450 X3.5529 Y0.1942 I-0.3075 J-0.4347
N1455 G1 X3.5536 Y0.1935
N1460 X3.5545 Y0.1931
N1465 G2 X3.64 Y0.1675 I-0.1749 J-0.7419
N1470 X3.7439 Y0.1227 I-3.0902 J-7.3055
N1475 G1 X3.7937 Y0.1037
N1480 X3.8413 Y0.0797
N1485 X3.8854 Y0.0498
N1490 X3.9254 Y0.0145
N1495 X3.9495 Y-0.0126
N1500 X3.9539 Y-0.0173
N1505 X3.9584 Y-0.0217
N1510 X3.9632 Y-0.026
N1515 G3 X4.0344 Y-0.0159 I0.0307 J0.0394
N1520 X4.022 Y0.0549 I-0.0405 J0.0294
N1525 G1 X3.7936 Y0.2091
N1530 G3 X3.7223 Y0.1926 I-0.028 J-0.0414
N1535 X3.7439 Y0.1227 I0.0433 J-0.0249
N1540 G1 X3.7494 Y0.1202
N1545 X3.7644 Y0.1126
N1550 X3.7735 Y0.1077
N1555 X3.7979 Y0.0927
N1560 X3.8694 Y0.0488
N1565 X3.8923 Y0.0329
N1570 X3.8994 Y0.0274
N1575 X3.9108 Y0.0179
N1580 X3.9823 Y-0.0419
N1585 G2 X4.0343 Y-0.0952 I-0.3039 J-0.3486
N1590 G1 X4.0643 Y-0.1288
N1595 X4.0933 Y-0.1616
N1600 G2 X4.1247 Y-0.2065 I-0.5947 J-0.449
N1605 G1 X4.1693 Y-0.2743
N1610 X4.1738 Y-0.2813
N1615 X4.1821 Y-0.2963
N1620 X4.19 Y-0.3112
N1625 X4.2249 Y-0.386
N1630 X4.2255 Y-0.3868
N1635 X4.2263 Y-0.3874
N1640 G2 X4.3745 Y-0.5208 I-0.1748 J-0.3434
N1645 X4.3825 Y-0.5442 I-0.0419 J-0.0272
N1650 G1 X4.4075 Y-0.8636
N1655 G2 X4.4033 Y-0.8879 I-0.0498 J-0.0039
N1660 X4.2776 Y-1.0428 I-0.3519 J0.1571
N1665 G1 X4.2769 Y-1.0435
N1670 X4.2765 Y-1.0444
N1675 X4.2541 Y-1.1192
N1680 G2 X4.2248 Y-1.1939 I-0.4341 J0.127
N1685 G1 X4.204 Y-1.2389
N1690 X4.1839 Y-1.2882
N1695 X4.1608 Y-1.3363
N1700 X4.1316 Y-1.3809
N1705 X4.097 Y-1.4213
N1710 X4.0695 Y-1.4464
N1715 X4.0662 Y-1.4495
N1720 X4.0631 Y-1.4527
N1725 X4.06 Y-1.456
N1730 G3 X4.0687 Y-1.5281 I0.0385 J-0.0319
N1735 X4.1402 Y-1.5156 I0.0298 J0.0401
N1740 G1 X4.2902 Y-1.2892
N1745 G3 X4.2737 Y-1.2184 I-0.0417 J0.0276
N1750 X4.204 Y-1.2389 I-0.0252 J-0.0432
N1755 G1 X4.19 Y-1.2688
N1760 X4.1821 Y-1.2837
N1765 X4.1738 Y-1.2987
N1770 G2 X4.1044 Y-1.4034 I-3.0593 J1.9519
N1775 G1 X4.0943 Y-1.4171
N1780 G2 X4.0044 Y-1.5179 I-3.8246 J3.3189
N1785 G1 X3.9894 Y-1.5319
N1790 G2 X3.8923 Y-1.6129 I-2.0426 J2.3484
N1795 G1 X3.8694 Y-1.6288
N1800 X3.7944 Y-1.6749
N1805 G2 X3.7195 Y-1.7134 I-0.2268 J0.3492
N1810 G1 X3.6993 Y-1.7221
N1815 X3.695 Y-1.724
N1820 X3.6943 Y-1.7245
N1825 X3.6937 Y-1.7253
N1830 G2 X3.5503 Y-1.8751 I-0.3512 J0.1926
N1835 X3.528 Y-1.8822 I-0.0259 J0.0427
N1840 G1 X3.2097 Y-1.9055
N1845 G2 X3.1866 Y-1.9017 I-0.0036 J0.0499
N1850 X3.0229 Y-1.7743 I0.1559 J0.369
N1855 G1 X3.0223 Y-1.7737
N1860 X3.0214 Y-1.7733
N1865 G2 X2.8999 Y-1.7326 I1.5686 J4.8915
N1870 G1 X2.7898 Y-1.6917
N1875 X2.7498 Y-1.6791
N1880 X2.7174 Y-1.6706
N1885 X2.6752 Y-1.6617
N1890 G3 X2.4634 Y-1.6396 I-0.2731 J-1.5869
N1895 X2.0372 Y-1.6312 I-0.3876 J-8.8744
N1900 G1 X1.8568 Y-1.6303
N1905 X1.6765 Y-1.63
N1910 X1.4962 Y-1.6304
N1915 X1.4843 Y-1.6322
N1920 X1.4727 Y-1.635
N1925 X1.3802 Y-1.6612
N1930 X1.3422 Y-1.6727
N1935 X1.3352 Y-1.675
N1940 X1.1801 Y-1.7326
N1945 X1.1689 Y-1.7365
N1950 X1.1677 Y-1.7369
N1955 G3 X1.1869 Y-1.8337 I0.0178 J-0.0467
N1960 G1 X2.7722 Y-1.7879
N1965 G3 X2.7898 Y-1.6917 I-0.0014 J0.05
N1970 G1 X2.7448 Y-1.675
N1975 X2.7378 Y-1.6727
N1980 X2.6998 Y-1.6612
N1985 X2.5798 Y-1.6272
N1990 X2.5648 Y-1.6236
N1995 X2.5348 Y-1.6168
N2000 X2.4149 Y-1.5928
N2005 X2.3999 Y-1.5903
N2010 X2.3699 Y-1.5855
N2015 X2.2499 Y-1.5712
N2020 X2.2349 Y-1.5697
N2025 X2.2049 Y-1.5667
N2030 X2.055 Y-1.5608
N2035 X2.04 Y-1.5602
N2040 X2.01 Y-1.5614
N2045 X1.8751 Y-1.5667
N2050 X1.8451 Y-1.5697
N2055 X1.8301 Y-1.5712
N2060 X1.7101 Y-1.5855
N2065 X1.6801 Y-1.5903
N2070 X1.6651 Y-1.5928
N2075 X1.5452 Y-1.6168
N2080 X1.5152 Y-1.6236
N2085 X1.5002 Y-1.6272
N2090 X1.4727 Y-1.635
N2095 X1.4718 Y-1.6354
N2100 X1.4711 Y-1.6361
N2105 X1.4707 Y-1.637
N2110 G2 X1.3834 Y-1.8 I-0.5059 J0.166
N2115 X1.3513 Y-1.8186 I-0.0393 J0.0309
N2120 G1 X0.6933 Y-1.9143
N2125 G2 X0.6573 Y-1.9056 I-0.0072 J0.0495
N2130 X0.5271 Y-1.7742 I0.3075 J0.4347
N2135 G1 X0.5264 Y-1.7735
N2140 X0.5255 Y-1.7731
N2145 G2 X0.44 Y-1.7475 I0.1749 J0.742
N2150 X0.3154 Y-1.6929 I1.2405 J2.9966
N2155 G1 X0.3065 Y-1.6877
N2160 X0.2821 Y-1.6727
N2165 X0.2106 Y-1.6288
N2170 X0.1877 Y-1.6129
N2175 X0.1806 Y-1.6074
N2180 X0.1692 Y-1.5979
N2185 X0.0977 Y-1.5381
N2190 G2 X0.0457 Y-1.4848 I0.3038 J0.3485
N2195 G1 X0.0157 Y-1.4512
N2200 X-0.0133 Y-1.4184
N2205 X-0.0143 Y-1.4171
N2210 X-0.0205 Y-1.4087
N2215 G3 X-0.0457 Y-1.3917 I-0.0392 J-0.031
N2220 G1 X-0.0511 Y-1.3902 Z-0.6947
N2225 X-0.0564 Y-1.3886 Z-0.6937
N2230 X-0.0615 Y-1.3871 Z-0.6922
N2235 X-0.0665 Y-1.3857 Z-0.69
N2240 X-0.0712 Y-1.3843 Z-0.6873
N2245 X-0.0756 Y-1.383 Z-0.6841
N2250 X-0.0796 Y-1.3818 Z-0.6804
N2255 X-0.0832 Y-1.3808 Z-0.6762
N2260 X-0.0863 Y-1.3799 Z-0.6716
N2265 X-0.0889 Y-1.3791 Z-0.6667
N2270 X-0.091 Y-1.3785 Z-0.6615
N2275 X-0.0925 Y-1.3781 Z-0.6561
N2280 X-0.0934 Y-1.3778 Z-0.6506
N2285 X-0.0937 Y-1.3777 Z-0.645
N2290 G0 Z0.6
(2D Adaptive2)
N2295 M9
N2300 T5 M6
N2305 T3
N2310 S3056 M3
N2315 M8
N2320 X2.9629 Y-1.7679
N2325 Z0.6
N2330 Z-0.215
N2335 G1 Z-0.2525 F30.56
N2340 X2.9627 Y-1.7677 Z-0.257
N2345 X2.9622 Y-1.7671 Z-0.2615
N2350 X2.9613 Y-1.7661 Z-0.2658
N2355 X2.9601 Y-1.7647 Z-0.2699
N2360 X2.9585 Y-1.763 Z-0.2738
N2365 X2.9566 Y-1.7609 Z-0.2774
N2370 X2.9545 Y-1.7585 Z-0.2806
N2375 X2.9521 Y-1.7558 Z-0.2834
N2380 X2.9495 Y-1.753 Z-0.2857
N2385 X2.9468 Y-1.7499 Z-0.2876
N2390 X2.9439 Y-1.7467 Z-0.2889
N2395 X2.9409 Y-1.7433 Z-0.2897
N2400 X2.9379 Y-1.74 Z-0.29
N2405 G17 G3 X2.7846 Y-1.602 I-0.7133 J-0.6385
N2410 G1 X2.7274 Y-1.5637
N2415 G2 X2.7027 Y-1.5459 I0.1532 J0.2386
N2420 G3 X2.6163 Y-1.4977 I-0.2263 J-0.3038
N2425 X2.4533 Y-1.4476 I-0.339 J-0.8129
N2430 X2.1758 Y-1.4114 I-0.3754 J-1.7977
N2435 X1.8027 Y-1.4189 I-0.1412 J-2.2525
N2440 X1.4842 Y-1.4727 I0.221 J-2.2807
N2445 X1.4285 Y-1.5015 I0.0309 J-0.128
N2450 G2 X1.3689 Y-1.5525 I-0.7438 J0.8084
N2455 G1 X1.3598 Y-1.5588
N2460 X1.3191 Y-1.5861
N2465 G3 X1.3423 Y-1.654 I0.0219 J-0.0304
N2470 G1 X2.6797 Y-1.612
N2475 G3 X2.7028 Y-1.5459 I-0.0012 J0.0375
N2480 G1 X2.6977 Y-1.5419
N2485 G2 X2.619 Y-1.4728 I5.7516 J6.6303
N2490 G3 X2.5306 Y-1.4159 I-0.2045 J-0.2204
N2495 G1 X2.507 Y-1.4056
N2500 G3 X2.3531 Y-1.3626 I-0.2999 J-0.7753
N2505 X2.0278 Y-1.3358 I-0.3076 J-1.7486
N2510 X1.5825 Y-1.378 I-0.0008 J-2.3617
N2515 X1.509 Y-1.4199 I0.0242 J-0.1277
N2520 G2 X1.4473 Y-1.4854 I-0.5132 J0.4215
N2525 G1 X1.4285 Y-1.5015
N2530 G3 X1.4552 Y-1.5663 I0.0257 J-0.0273
N2535 G1 X2.5924 Y-1.5356
N2540 G3 X2.619 Y-1.4728 I-0.001 J0.0375
N2545 G1 X2.6091 Y-1.4627
N2550 X2.5965 Y-1.4488
N2555 X2.5889 Y-1.4403
N2560 X2.5593 Y-1.4066
N2565 G3 X2.4618 Y-1.3384 I-0.2091 J-0.1949
N2570 X2.3444 Y-1.2983 I-0.2516 J-0.5448
N2575 X2.1603 Y-1.2703 I-0.2602 J-1.0924
N2580 X1.648 Y-1.2941 I-0.1552 J-2.1867
N2585 X1.5664 Y-1.3484 I0.0265 J-0.1283
N2590 G2 X1.5305 Y-1.3954 I-0.3005 J0.1919
N2595 G1 X1.509 Y-1.4199
N2600 G3 X1.5385 Y-1.4812 I0.029 J-0.0237
N2605 G1 X2.5308 Y-1.4679
N2610 G3 X2.5593 Y-1.4066 I-0.0005 J0.0375
N2615 G1 X2.5495 Y-1.3954
N2620 G2 X2.511 Y-1.3444 I0.2693 J0.2432
N2625 G3 X2.4307 Y-1.2773 I-0.1852 J-0.14
N2630 X2.3112 Y-1.2301 I-0.2423 J-0.4389
N2635 X2.1345 Y-1.2002 I-0.2494 J-0.9353
N2640 X1.7264 Y-1.2108 I-0.1525 J-1.9767
N2645 G1 X1.7018 Y-1.2151
N2650 G3 X1.616 Y-1.2737 I0.0247 J-0.1282
N2655 G2 X1.5664 Y-1.3484 I-1.6896 J1.0694
N2660 G1 X1.5642 Y-1.3522
N2665 X1.5626 Y-1.3563
N2670 X1.5614 Y-1.3606
N2675 X1.5608 Y-1.365
N2680 X1.5606 Y-1.3694
N2685 X1.561 Y-1.3738
N2690 X1.5619 Y-1.3781
N2695 G3 X1.5983 Y-1.4059 I0.0362 J0.0097
N2700 G1 X2.4793 Y-1.4019
N2705 G3 X2.5109 Y-1.3444 I-0.0002 J0.0375
N2710 G1 X2.5066 Y-1.3381
N2715 X2.4774 Y-1.2945
N2720 X2.47 Y-1.2833
N2725 X2.4661 Y-1.2771
N2730 G3 X2.3933 Y-1.2115 I-0.1789 J-0.1255
N2735 X2.2885 Y-1.1654 I-0.2316 J-0.3839
N2740 X2.1265 Y-1.1326 I-0.248 J-0.8086
N2745 X1.7712 Y-1.1347 I-0.1678 J-1.6467
N2750 G1 X1.749 Y-1.1388
N2755 G3 X1.6688 Y-1.1806 I0.02 J-0.1361
N2760 G1 X1.6576 Y-1.195
N2765 X1.6484 Y-1.2106
N2770 G2 X1.6161 Y-1.2738 I-1.413 J0.6843
N2775 G1 X1.6141 Y-1.2777
N2780 X1.6125 Y-1.2818
N2785 X1.6115 Y-1.2861
N2790 X1.611 Y-1.2905
N2795 Y-1.2949
N2800 X1.6116 Y-1.2993
N2805 X1.6126 Y-1.3036
N2810 G3 X1.6483 Y-1.33 I0.0358 J0.0111
N2815 G1 X2.4335 Y-1.3334
N2820 G3 X2.4661 Y-1.2771 I0.0002 J0.0375
N2825 G1 X2.4629 Y-1.2721
N2830 X2.4504 Y-1.2481
N2835 X2.4454 Y-1.2384
N2840 X2.4364 Y-1.2204
N2845 G3 X2.3685 Y-1.1508 I-0.1727 J-0.1006
N2850 X2.2489 Y-1.095 I-0.24 J-0.3585
N2855 X2.0911 Y-1.0627 I-0.2398 J-0.77
N2860 X2.0563 Y-1.06 I-0.044 J-0.3349
N2865 G1 X1.8995
N2870 X1.8528 Y-1.0623
N2875 G3 X1.7648 Y-1.0731 I0.0087 J-0.4367
N2880 X1.6759 Y-1.1519 I0.0326 J-0.1262
N2885 X1.6738 Y-1.1643 I0.0354 J-0.0124
N2890 X1.724 Y-1.1996 I0.0375 J0
N2895 G1 X1.9108 Y-1.1328
N2900 G3 X1.8995 Y-1.06 I-0.0126 J0.0353
N2905 G1 X1.7533
N2910 G3 X1.6938 Y-1.1011 I-0.0016 J-0.0612
N2915 G1 X1.6928 Y-1.1054
N2920 X1.6923 Y-1.1098
N2925 Y-1.1142
N2930 X1.6928 Y-1.1186
N2935 X1.6938 Y-1.1229
N2940 X1.6954 Y-1.127
N2945 X1.6974 Y-1.131
N2950 G3 X1.7503 Y-1.1434 I0.0324 J0.0189
N2955 G1 X1.7725 Y-1.1289
N2960 G3 X1.7533 Y-1.06 I-0.0205 J0.0314
N2965 G1 X1.7421
N2970 X1.7308 Y-1.0603
N2975 G3 X1.701 Y-1.0814 I0.0049 J-0.0384
N2980 G2 X1.6729 Y-1.1599 I-2.5248 J0.859
N2985 G1 X1.668 Y-1.1711
N2990 X1.6484 Y-1.2106
N2995 G3 X1.6821 Y-1.2636 I0.0342 J-0.0155
N3000 G1 X2.4018 Y-1.2734
N3005 G3 X2.4364 Y-1.2204 I0.0005 J0.0375
N3010 G1 X2.412 Y-1.1711
N3015 X2.4072 Y-1.1599
N3020 G3 X2.3476 Y-1.0915 I-0.1617 J-0.0807
N3025 X2.2627 Y-1.06 I-0.0852 J-0.0994
N3030 X2.2426 Y-1.1283 I0.0013 J-0.0375
N3035 G1 X2.3504 Y-1.2031
N3040 G3 X2.4072 Y-1.1599 I0.0214 J0.0308
N3045 G1 X2.4028 Y-1.1487
N3050 X2.3986 Y-1.1375
N3055 X2.3888 Y-1.1089
N3060 G3 X2.322 Y-1.06 I-0.067 J-0.0214
N3065 G1 X2.3176 Y-1.0604
N3070 X2.3133 Y-1.0613
N3075 X2.3091 Y-1.0628
N3080 X2.3051 Y-1.0647
N3085 X2.3014 Y-1.067
N3090 X2.298 Y-1.0698
N3095 X2.2949 Y-1.073
N3100 G3 X2.3008 Y-1.1274 I0.0284 J-0.0245
N3105 G1 X2.3303 Y-1.1497
N3110 G3 X2.3888 Y-1.1089 I0.0226 J0.0299
N3115 G1 X2.3829 Y-1.0917
N3120 G3 X2.3655 Y-1.0662 I-0.0412 J-0.0095
N3125 G1 X2.3604 Y-1.0634
N3130 X2.3548 Y-1.0614
N3135 X2.3492 Y-1.0603
N3140 X2.3379 Y-1.06
N3145 X2.0563
N3150 G3 X2.0292 Y-1.073 I0.0013 J-0.0375
N3155 G1 X2.0263 Y-1.0764 Z-0.2897
N3160 X2.0234 Y-1.0798 Z-0.2889
N3165 X2.0206 Y-1.0831 Z-0.2876
N3170 X2.0179 Y-1.0862 Z-0.2857
N3175 X2.0153 Y-1.0891 Z-0.2834
N3180 X2.013 Y-1.0918 Z-0.2806
N3185 X2.0109 Y-1.0943 Z-0.2774
N3190 X2.0091 Y-1.0964 Z-0.2738
N3195 X2.0076 Y-1.0981 Z-0.2699
N3200 X2.0064 Y-1.0996 Z-0.2658
N3205 X2.0055 Y-1.1006 Z-0.2615
N3210 X2.0049 Y-1.1012 Z-0.257
N3215 X2.0048 Y-1.1014 Z-0.2525
N3220 G0 Z0.6
N3225 X1.1171 Y0.1879
N3230 Z-0.215
N3235 G1 Z-0.2525 F30.56
N3240 X1.1173 Y0.1877 Z-0.257
N3245 X1.1178 Y0.1871 Z-0.2615
N3250 X1.1187 Y0.1861 Z-0.2658
N3255 X1.1199 Y0.1847 Z-0.2699
N3260 X1.1215 Y0.183 Z-0.2738
N3265 X1.1234 Y0.1809 Z-0.2774
N3270 X1.1255 Y0.1785 Z-0.2806
N3275 X1.1279 Y0.1758 Z-0.2834
N3280 X1.1305 Y0.173 Z-0.2857
N3285 X1.1332 Y0.1699 Z-0.2876
N3290 X1.1361 Y0.1667 Z-0.2889
N3295 X1.1391 Y0.1633 Z-0.2897
N3300 X1.1421 Y0.16 Z-0.29
N3305 G3 X1.2954 Y0.022 I0.7133 J0.6385
N3310 G1 X1.3526 Y-0.0163
N3315 G2 X1.3773 Y-0.0341 I-0.1531 J-0.2385
N3320 G3 X1.4637 Y-0.0823 I0.2263 J0.3038
N3325 X1.6267 Y-0.1324 I0.339 J0.8129
N3330 X1.9042 Y-0.1686 I0.3754 J1.7978
N3335 X2.2773 Y-0.1611 I0.1412 J2.2524
N3340 X2.5958 Y-0.1073 I-0.221 J2.2806
N3345 X2.6515 Y-0.0785 I-0.0309 J0.128
N3350 G2 X2.7111 Y-0.0275 I0.7438 J-0.8085
N3355 G1 X2.7202 Y-0.0212
N3360 X2.7609 Y0.0061
N3365 G3 X2.7377 Y0.074 I-0.0219 J0.0304
N3370 G1 X1.4003 Y0.032
N3375 G3 X1.3772 Y-0.0341 I0.0012 J-0.0375
N3380 G1 X1.3823 Y-0.0381
N3385 G2 X1.461 Y-0.1072 I-5.6751 J-6.543
N3390 G3 X1.5494 Y-0.1641 I0.2045 J0.2204
N3395 G1 X1.573 Y-0.1744
N3400 G3 X1.7269 Y-0.2174 I0.2999 J0.7753
N3405 X2.0522 Y-0.2442 I0.3076 J1.7486
N3410 X2.4975 Y-0.202 I0.0008 J2.3618
N3415 X2.571 Y-0.1601 I-0.0242 J0.1277
N3420 G2 X2.6327 Y-0.0946 I0.5132 J-0.4215
N3425 G1 X2.6515 Y-0.0785
N3430 G3 X2.6248 Y-0.0137 I-0.0257 J0.0273
N3435 G1 X1.4876 Y-0.0444
N3440 G3 X1.461 Y-0.1072 I0.001 J-0.0375
N3445 G1 X1.4709 Y-0.1173
N3450 X1.4835 Y-0.1312
N3455 X1.4911 Y-0.1397
N3460 X1.5207 Y-0.1734
N3465 G3 X1.6182 Y-0.2416 I0.2091 J0.1949
N3470 X1.7356 Y-0.2817 I0.2516 J0.5448
N3475 X1.9197 Y-0.3097 I0.2602 J1.0924
N3480 X2.432 Y-0.2859 I0.1552 J2.1868
N3485 X2.5136 Y-0.2316 I-0.0265 J0.1283
N3490 G2 X2.5495 Y-0.1846 I0.3005 J-0.1919
N3495 G1 X2.571 Y-0.1601
N3500 G3 X2.5415 Y-0.0988 I-0.029 J0.0237
N3505 G1 X1.5492 Y-0.1121
N3510 G3 X1.5207 Y-0.1734 I0.0005 J-0.0375
N3515 G1 X1.5305 Y-0.1846
N3520 G2 X1.569 Y-0.2356 I-0.2693 J-0.2432
N3525 G3 X1.6493 Y-0.3027 I0.1852 J0.14
N3530 X1.7688 Y-0.3499 I0.2423 J0.4389
N3535 X1.9455 Y-0.3798 I0.2494 J0.9353
N3540 X2.3536 Y-0.3692 I0.1525 J1.9768
N3545 G1 X2.3782 Y-0.3649
N3550 G3 X2.464 Y-0.3063 I-0.0247 J0.1282
N3555 G2 X2.5136 Y-0.2316 I1.6895 J-1.0692
N3560 G1 X2.5158 Y-0.2278
N3565 X2.5174 Y-0.2237
N3570 X2.5186 Y-0.2194
N3575 X2.5192 Y-0.215
N3580 X2.5194 Y-0.2106
N3585 X2.519 Y-0.2062
N3590 X2.5181 Y-0.2019
N3595 G3 X2.4817 Y-0.1741 I-0.0362 J-0.0097
N3600 G1 X1.6007 Y-0.1781
N3605 G3 X1.5691 Y-0.2356 I0.0002 J-0.0375
N3610 G1 X1.5734 Y-0.2419
N3615 X1.6026 Y-0.2855
N3620 X1.61 Y-0.2967
N3625 X1.6139 Y-0.3029
N3630 G3 X1.6867 Y-0.3685 I0.179 J0.1255
N3635 X1.7915 Y-0.4146 I0.2316 J0.3839
N3640 X1.9535 Y-0.4474 I0.248 J0.8086
N3645 X2.3088 Y-0.4453 I0.1678 J1.6467
N3650 G1 X2.331 Y-0.4412
N3655 G3 X2.4112 Y-0.3994 I-0.02 J0.1361
N3660 G1 X2.4224 Y-0.385
N3665 X2.4316 Y-0.3694
N3670 G2 X2.4639 Y-0.3062 I1.4128 J-0.6842
N3675 G1 X2.4659 Y-0.3023
N3680 X2.4675 Y-0.2982
N3685 X2.4685 Y-0.2939
N3690 X2.469 Y-0.2895
N3695 Y-0.2851
N3700 X2.4684 Y-0.2807
N3705 X2.4674 Y-0.2764
N3710 G3 X2.4317 Y-0.25 I-0.0358 J-0.0111
N3715 G1 X1.6465 Y-0.2466
N3720 G3 X1.6139 Y-0.3029 I-0.0002 J-0.0375
N3725 G1 X1.6171 Y-0.3079
N3730 X1.6296 Y-0.3319
N3735 X1.6346 Y-0.3416
N3740 X1.6436 Y-0.3596
N3745 G3 X1.7115 Y-0.4292 I0.1727 J0.1006
N3750 X1.8311 Y-0.485 I0.24 J0.3585
N3755 X1.9889 Y-0.5173 I0.2398 J0.77
N3760 X2.0237 Y-0.52 I0.044 J0.335
N3765 G1 X2.1805
N3770 X2.2272 Y-0.5177
N3775 G3 X2.3152 Y-0.5069 I-0.0087 J0.4367
N3780 X2.4041 Y-0.4281 I-0.0326 J0.1262
N3785 X2.4062 Y-0.4157 I-0.0354 J0.0124
N3790 X2.356 Y-0.3804 I-0.0375 J0
N3795 G1 X2.1692 Y-0.4472
N3800 G3 X2.1805 Y-0.52 I0.0126 J-0.0353
N3805 G1 X2.3267
N3810 G3 X2.3862 Y-0.4789 I0.0016 J0.0612
N3815 G1 X2.3872 Y-0.4746
N3820 X2.3877 Y-0.4702
N3825 Y-0.4658
N3830 X2.3872 Y-0.4614
N3835 X2.3862 Y-0.4571
N3840 X2.3846 Y-0.453
N3845 X2.3826 Y-0.449
N3850 G3 X2.3297 Y-0.4366 I-0.0324 J-0.0189
N3855 G1 X2.3075 Y-0.4511
N3860 G3 X2.3267 Y-0.52 I0.0205 J-0.0314
N3865 G1 X2.3379
N3870 X2.3492 Y-0.5197
N3875 G3 X2.379 Y-0.4986 I-0.0049 J0.0384
N3880 G2 X2.4071 Y-0.4201 I2.5245 J-0.8589
N3885 G1 X2.412 Y-0.4089
N3890 X2.4316 Y-0.3694
N3895 G3 X2.3979 Y-0.3164 I-0.0342 J0.0155
N3900 G1 X1.6782 Y-0.3066
N3905 G3 X1.6436 Y-0.3596 I-0.0005 J-0.0375
N3910 G1 X1.668 Y-0.4089
N3915 X1.6728 Y-0.4201
N3920 G3 X1.7324 Y-0.4885 I0.1617 J0.0807
N3925 X1.8173 Y-0.52 I0.0852 J0.0994
N3930 X1.8374 Y-0.4517 I-0.0013 J0.0375
N3935 G1 X1.7296 Y-0.3769
N3940 G3 X1.6728 Y-0.4201 I-0.0214 J-0.0308
N3945 G1 X1.6772 Y-0.4313
N3950 X1.6814 Y-0.4425
N3955 X1.6912 Y-0.4711
N3960 G3 X1.758 Y-0.52 I0.067 J0.0214
N3965 G1 X1.7624 Y-0.5196
N3970 X1.7667 Y-0.5187
N3975 X1.7709 Y-0.5172
N3980 X1.7749 Y-0.5153
N3985 X1.7786 Y-0.513
N3990 X1.782 Y-0.5102
N3995 X1.7851 Y-0.507
N4000 G3 X1.7792 Y-0.4526 I-0.0284 J0.0245
N4005 G1 X1.7497 Y-0.4303
N4010 G3 X1.6912 Y-0.4711 I-0.0226 J-0.0299
N4015 G1 X1.6971 Y-0.4883
N4020 G3 X1.7145 Y-0.5138 I0.0412 J0.0095
N4025 G1 X1.7196 Y-0.5166
N4030 X1.7252 Y-0.5186
N4035 X1.7308 Y-0.5197
N4040 X1.7421 Y-0.52
N4045 X2.0237
N4050 G3 X2.0508 Y-0.507 I-0.0013 J0.0375
N4055 G1 X2.0537 Y-0.5036 Z-0.2897
N4060 X2.0566 Y-0.5002 Z-0.2889
N4065 X2.0594 Y-0.4969 Z-0.2876
N4070 X2.0621 Y-0.4938 Z-0.2857
N4075 X2.0647 Y-0.4909 Z-0.2834
N4080 X2.067 Y-0.4882 Z-0.2806
N4085 X2.0691 Y-0.4857 Z-0.2774
N4090 X2.0709 Y-0.4836 Z-0.2738
N4095 X2.0724 Y-0.4819 Z-0.2699
N4100 X2.0737 Y-0.4804 Z-0.2658
N4105 X2.0745 Y-0.4794 Z-0.2615
N4110 X2.0751 Y-0.4788 Z-0.257
N4115 X2.0752 Y-0.4786 Z-0.2525
N4120 G0 Z0.6
N4125 X0.8143 Y-0.9665
N4130 Z0.102
N4135 G3 X0.7658 Y-0.6136 Z0.0825 I-0.0243 J0.1765 F3.67
N4140 X0.8143 Y-0.9665 Z0.0629 I0.0243 J-0.1765
N4145 X0.7658 Y-0.6136 Z0.0434 I-0.0243 J0.1765
N4150 X0.8143 Y-0.9665 Z0.0238 I0.0243 J-0.1765
N4155 X0.7658 Y-0.6136 Z0.0043 I-0.0243 J0.1765
N4160 X0.8143 Y-0.9665 Z-0.0152 I0.0243 J-0.1765
N4165 X0.7658 Y-0.6136 Z-0.0348 I-0.0243 J0.1765
N4170 X0.8143 Y-0.9665 Z-0.0543 I0.0243 J-0.1765
N4175 X0.7658 Y-0.6136 Z-0.0739 I-0.0243 J0.1765
N4180 X0.8143 Y-0.9665 Z-0.0934 I0.0243 J-0.1765
N4185 X0.7658 Y-0.6136 Z-0.113 I-0.0243 J0.1765
N4190 X0.8143 Y-0.9665 Z-0.1325 I0.0243 J-0.1765
N4195 X0.7658 Y-0.6136 Z-0.152 I-0.0243 J0.1765
N4200 X0.8143 Y-0.9665 Z-0.1716 I0.0243 J-0.1765
N4205 X0.7658 Y-0.6136 Z-0.1911 I-0.0243 J0.1765
N4210 X0.8143 Y-0.9665 Z-0.2107 I0.0243 J-0.1765
N4215 X0.7658 Y-0.6136 Z-0.2302 I-0.0243 J0.1765
N4220 X0.8143 Y-0.9665 Z-0.2497 I0.0243 J-0.1765
N4225 X0.7658 Y-0.6136 Z-0.2693 I-0.0243 J0.1765
N4230 X0.8143 Y-0.9665 Z-0.2888 I0.0243 J-0.1765
N4235 X0.7658 Y-0.6136 Z-0.3084 I-0.0243 J0.1765
N4240 X0.8143 Y-0.9665 Z-0.3279 I0.0243 J-0.1765
N4245 X0.7658 Y-0.6136 Z-0.3475 I-0.0243 J0.1765
N4250 X0.8143 Y-0.9665 Z-0.367 I0.0243 J-0.1765
N4255 X0.7658 Y-0.6136 Z-0.3865 I-0.0243 J0.1765
N4260 X0.8143 Y-0.9665 Z-0.4061 I0.0243 J-0.1765
N4265 X0.9682 Y-0.79 Z-0.415 I-0.0243 J0.1765
N4270 X0.6119 I-0.1781 J0
N4275 X0.9681 Y-0.7954 I0.1781 J0
N4280 G1 X0.9682 Y-0.79
N4285 X0.9689 Y-0.7433 F30.56
N4290 G3 X0.9721 Y-0.7139 I-0.0673 J0.0223
N4295 X0.9174 Y-0.6315 I-0.1058 J-0.0109
N4300 G2 X0.8597 Y-0.5982 I0.5061 J0.9445
N4305 G3 X0.7342 Y-0.5792 I-0.0858 J-0.142
N4310 X0.6036 Y-0.6699 I0.0408 J-0.1981
N4315 G1 X0.5958 Y-0.6877
N4320 X0.5904 Y-0.7065
N4325 X0.5879 Y-0.7258
N4330 X0.5883 Y-0.7453
N4335 X0.5893 Y-0.7563
N4340 X0.5896 Y-0.79
N4345 X0.5893 Y-0.8237
N4350 X0.5891 Y-0.8256
N4355 G3 X0.6353 Y-0.9438 I0.1658 J-0.0033
N4360 X0.7764 Y-1.0115 I0.1515 J0.1349
N4365 X0.8545 Y-0.9855 I-0.0008 J0.1327
N4370 G2 X0.922 Y-0.9461 I0.4355 J-0.6673
N4375 G3 X0.9958 Y-0.8606 I-0.081 J0.1446
N4380 X1.0222 Y-0.7438 I-0.244 J0.1164
N4385 G1 X1.0194 Y-0.7255
N4390 G3 X0.9497 Y-0.645 I-0.1097 J-0.0246
N4395 G1 X0.9332 Y-0.6387
N4400 X0.9219 Y-0.634
N4405 X0.9175 Y-0.6315
N4410 G3 X0.8631 Y-0.6662 I-0.0169 J-0.0335
N4415 G1 X0.8711 Y-0.9122
N4420 G3 X0.9219 Y-0.946 I0.0375 J0.0012
N4425 G1 X0.9332 Y-0.9413
N4430 X0.9556 Y-0.9327
N4435 X0.959 Y-0.9319
N4440 G3 X1.0138 Y-0.8937 I-0.035 J0.1086
N4445 X1.0647 Y-0.7438 I-0.1493 J0.1342
N4450 X0.9997 Y-0.6594 I-0.1061 J-0.0144
N4455 G1 X0.9846 Y-0.6545
N4460 X0.9669 Y-0.6502
N4465 X0.9556 Y-0.6473
N4470 X0.9497 Y-0.645
N4475 G3 X0.9002 Y-0.6828 I-0.0121 J-0.0355
N4480 G1 X0.9135 Y-0.8976
N4485 G3 X0.959 Y-0.9319 I0.0374 J0.0023
N4490 G1 X0.9669 Y-0.9298
N4495 X0.9894 Y-0.9244
N4500 X1.0006 Y-0.9218
N4505 G3 X1.0701 Y-0.8714 I-0.0336 J0.1195
N4510 X1.1031 Y-0.7345 I-0.1362 J0.1053
N4515 X1.0544 Y-0.6719 I-0.0898 J-0.0197
N4520 G1 X1.0391 Y-0.666
N4525 X1.0231 Y-0.663
N4530 G3 X0.9801 Y-0.6953 I-0.0058 J-0.0371
N4535 G1 X0.9564 Y-0.8802
N4540 G3 X1.0006 Y-0.9218 I0.0372 J-0.0048
N4545 G1 X1.0118 Y-0.9193
N4550 X1.0231 Y-0.917
N4555 X1.0377 Y-0.9156
N4560 G3 X1.1015 Y-0.8794 I-0.016 J0.1024
N4565 X1.1438 Y-0.7402 I-0.1207 J0.1126
N4570 X1.056 Y-0.6656 I-0.0916 J-0.0188
N4575 G2 X0.9873 Y-0.6551 I0.0066 J0.2729
N4580 G1 X0.9846 Y-0.6545
N4585 G3 X0.9412 Y-0.7024 I-0.0076 J-0.0367
N4590 G1 X0.9995 Y-0.8893
N4595 G3 X1.0377 Y-0.9156 I0.0358 J0.0112
N4600 G1 X1.0455 Y-0.9148
N4605 X1.0568 Y-0.9144
N4610 X1.068 Y-0.9147
N4615 G3 X1.1333 Y-0.886 I-0.002 J0.0932
N4620 X1.1811 Y-0.7342 I-0.1072 J0.1171
N4625 X1.1015 Y-0.6653 I-0.0917 J-0.0254
N4630 G1 X1.0856 Y-0.6647
N4635 X1.0793 Y-0.665
N4640 X1.0568 Y-0.6656
N4645 X1.056
N4650 G3 X1.0185 Y-0.7062 I-0.0002 J-0.0375
N4655 G1 X1.0331 Y-0.8804
N4660 G3 X1.068 Y-0.9147 I0.0374 J0.0031
N4665 G1 X1.0793 Y-0.915
N4670 X1.0905 Y-0.9155
N4675 X1.1051 Y-0.9163
N4680 G3 X1.1591 Y-0.8974 I0.0008 J0.0843
N4685 X1.2049 Y-0.8142 I-0.0684 J0.092
N4690 X1.1395 Y-0.7877 I-0.0374 J0.0016
N4695 G1 X1.0804 Y-0.854
N4700 G3 X1.1051 Y-0.9163 I0.028 J-0.0249
N4705 G1 X1.113 Y-0.9167
N4710 X1.1242 Y-0.9177
N4715 X1.1354 Y-0.9192
N4720 X1.1414 Y-0.9199
N4725 G3 X1.197 Y-0.8749 I-0.0015 J0.0587
N4730 X1.1362 Y-0.8147 I-0.0502 J0.0102
N4735 X1.1354 Y-0.9192 I0.0111 J-0.0523
N4740 G1 X1.1467 Y-0.9213
N4745 G3 X1.193 Y-0.8911 I0.0089 J0.037
N4750 X1.2041 Y-0.8237 I-0.3362 J0.0898
N4755 X1.2042 Y-0.7563 I-0.248 J0.034
N4760 G1 X1.203 Y-0.745
N4765 X1.2004 Y-0.7248
N4770 G3 X1.1219 Y-0.6625 I-0.0719 J-0.0099
N4775 X1.0671 Y-0.7598 I0.0086 J-0.069
N4780 X1.2004 Y-0.7248 I0.0638 J0.0285
N4785 G1 X1.2001 Y-0.7226
N4790 X1.1985 Y-0.7113
N4795 X1.1931 Y-0.6889
N4800 X1.1919 Y-0.6845
N4805 G3 X1.1467 Y-0.6586 I-0.0363 J-0.011
N4810 G2 X1.0856 Y-0.6646 I-0.0614 J0.3142
N4815 G1 X1.0821 Y-0.6651
N4820 X1.0785 Y-0.6659
N4825 X1.0557 Y-0.6723
N4830 X0.6163 Y-0.7943
N4835 G3 X0.5891 Y-0.8256 I0.01 J-0.0361
N4840 G1 X0.5882 Y-0.835
N4845 X0.5866 Y-0.8462
N4850 X0.5848 Y-0.8557
N4855 X0.5827 Y-0.8636
N4860 G3 X0.5921 Y-0.9389 I0.1086 J-0.0247
N4865 X0.6843 Y-1.0323 I0.1752 J0.0806
N4870 X0.7485 Y-1.0484 I0.06 J0.1039
N4875 X0.8208 Y-1.0151 I-0.0064 J0.109
N4880 G1 X0.832 Y-1.0038
N4885 X0.8433 Y-0.9939
N4890 X0.8545 Y-0.9855
N4895 G3 X0.8445 Y-0.9212 I-0.0235 J0.0292
N4900 G1 X0.6321 Y-0.8395
N4905 G3 X0.5827 Y-0.8636 I-0.0135 J-0.035
N4910 G1 X0.5784 Y-0.8799
N4915 X0.5752 Y-0.8911
N4920 X0.5709 Y-0.9058
N4925 G3 X0.5797 Y-0.98 I0.1052 J-0.0252
N4930 X0.6781 Y-1.0758 I0.1675 J0.0736
N4935 X0.7899 Y-1.048 I0.0355 J0.0962
N4940 G1 X0.7983 Y-1.0386
N4945 X0.8103 Y-1.026
N4950 X0.8208 Y-1.0151
N4955 G3 X0.8064 Y-0.9551 I-0.0279 J0.025
N4960 G1 X0.62 Y-0.8828
N4965 G3 X0.5709 Y-0.9058 I-0.0136 J-0.035
N4970 G1 X0.5685 Y-0.9136
N4975 X0.5645 Y-0.9249
N4980 X0.5601 Y-0.9361
N4985 X0.5593 Y-0.938
N4990 G3 X0.562 Y-1.0111 I0.0949 J-0.0331
N4995 X0.6534 Y-1.108 I0.1553 J0.055
N5000 X0.7723 Y-1.071 I0.0362 J0.0931
N5005 X0.7612 Y-1.0198 I-0.0318 J0.0199
N5010 G1 X0.6141 Y-0.9223
N5015 G3 X0.5593 Y-0.938 I-0.0207 J-0.0313
N5020 G1 X0.5554 Y-0.9473
N5025 X0.5487 Y-0.9586
N5030 X0.5467 Y-0.962
N5035 G3 X0.5387 Y-1.0264 I0.0776 J-0.0423
N5040 X0.6428 Y-1.1443 I0.1536 J0.0307
N5045 X0.7578 Y-1.0948 I0.0275 J0.0944
N5050 X0.7445 Y-1.0476 I-0.034 J0.0159
N5055 G1 X0.5988 Y-0.9511
N5060 G3 X0.5467 Y-0.962 I-0.0207 J-0.0313
N5065 G1 X0.5352 Y-0.9811
N5070 X0.5286 Y-0.9912
N5075 G3 X0.5195 Y-1.0615 I0.0795 J-0.046
N5080 X0.5855 Y-1.1514 I0.1248 J0.0224
N5085 G1 X0.5895 Y-1.1531
N5090 X0.5937 Y-1.1543
N5095 X0.5981 Y-1.1551
N5100 X0.6025 Y-1.1553
N5105 X0.6069 Y-1.155
N5110 X0.6112 Y-1.1541
N5115 X0.6154 Y-1.1528
N5120 G3 X0.6367 Y-1.1037 I-0.0135 J0.035
N5125 G1 X0.5942 Y-0.9986
N5130 G3 X0.5286 Y-0.9912 I-0.0348 J-0.0141
N5135 G1 X0.5206 Y-1.0035
N5140 X0.5174 Y-1.0082
N5145 X0.5129 Y-1.0148
N5150 X0.5109 Y-1.0174
N5155 X0.5074 Y-1.0222
N5160 G3 X0.5212 Y-1.1072 I0.0583 J-0.0341
N5165 G1 X0.5261 Y-1.1109
N5170 X0.5314 Y-1.1141
N5175 X0.537 Y-1.1168
N5180 X0.5428 Y-1.1189
N5185 X0.5487 Y-1.1204
N5190 G3 X0.6203 Y-1.0785 I0.0122 J0.0612
N5195 X0.5109 Y-1.0174 I-0.0608 J0.0197
N5200 G1 X0.504 Y-1.026
N5205 G3 X0.4912 Y-1.0429 I0.0463 J-0.0485
N5210 X0.495 Y-1.0822 I0.0346 J-0.0166
N5215 X0.5632 Y-1.1384 I0.2472 J0.2306
N5220 G1 X0.5736 Y-1.1452
N5225 X0.6073 Y-1.1632
N5230 X0.6185 Y-1.1686
N5235 G3 X0.7103 Y-1.1632 I0.0412 J0.0814
N5240 G1 X0.7227 Y-1.1531
N5245 X0.7332 Y-1.1409
N5250 X0.7413 Y-1.1272
N5255 G3 X0.6952 Y-1.0766 I-0.0344 J0.0149
N5260 G1 X0.6244 Y-1.0999
N5265 G3 X0.6185 Y-1.1686 I0.0117 J-0.0356
N5270 G1 X0.6298 Y-1.174
N5275 X0.641 Y-1.1786
N5280 X0.6523 Y-1.1826
N5285 X0.6697 Y-1.1878
N5290 G3 X0.7272 Y-1.1593 I0.0137 J0.0445
N5295 X0.7247 Y-1.1246 I-0.0435 J0.0144
N5300 X0.6434 Y-1.1649 I-0.0407 J-0.0201
N5305 X0.6697 Y-1.1878 I0.0407 J0.0201
N5310 G1 X0.6747 Y-1.1893
N5315 G3 X0.7264 Y-1.1608 I0.014 J0.0358
N5320 G2 X0.7578 Y-1.0949 I0.5687 J-0.2304
N5325 G1 X0.7592 Y-1.0915
N5330 X0.7602 Y-1.088
N5335 X0.766 Y-1.0651
N5340 X0.8735 Y-0.6372
N5345 G3 X0.8597 Y-0.5982 I-0.0364 J0.0091
N5350 G1 X0.8545 Y-0.5945
N5355 X0.8433 Y-0.5861
N5360 X0.832 Y-0.5762
N5365 X0.8287 Y-0.5729
N5370 G3 X0.7591 Y-0.5442 I-0.0746 J-0.0823
N5375 X0.6323 Y-0.5778 I-0.017 J-0.1921
N5380 X0.58 Y-0.7062 I0.0586 J-0.0987
N5385 G1 X0.5848 Y-0.7243
N5390 X0.5866 Y-0.7338
N5395 X0.5883 Y-0.7453
N5400 G3 X0.649 Y-0.7696 I0.0372 J0.0049
N5405 G1 X0.8248 Y-0.6276
N5410 G3 X0.8287 Y-0.5729 I-0.0236 J0.0292
N5415 G1 X0.8208 Y-0.5649
N5420 X0.8096 Y-0.5532
N5425 X0.7996 Y-0.5428
N5430 G3 X0.7311 Y-0.513 I-0.0747 J-0.078
N5435 X0.6049 Y-0.546 I-0.0207 J-0.1786
N5440 X0.5685 Y-0.6664 I0.0635 J-0.0849
N5445 G1 X0.5752 Y-0.6889
N5450 X0.5784 Y-0.7001
N5455 X0.58 Y-0.7062
N5460 G3 X0.6397 Y-0.7243 I0.0359 J0.0109
N5465 G1 X0.7954 Y-0.5966
N5470 G3 X0.7996 Y-0.5428 I-0.0238 J0.029
N5475 G1 X0.7983 Y-0.5414
N5480 G2 X0.7786 Y-0.5185 I0.3181 J0.2946
N5485 G3 X0.7226 Y-0.4842 I-0.0721 J-0.0549
N5490 X0.5608 Y-0.5351 I-0.0396 J-0.1568
N5495 X0.5489 Y-0.6194 I0.0714 J-0.053
N5500 G1 X0.5554 Y-0.6327
N5505 X0.5601 Y-0.6439
N5510 X0.5645 Y-0.6551
N5515 X0.5685 Y-0.6664
N5520 G3 X0.6267 Y-0.6819 I0.0349 J0.0138
N5525 G1 X0.7702 Y-0.5678
N5530 G3 X0.7787 Y-0.5185 I-0.0233 J0.0293
N5535 G1 X0.7646 Y-0.4977
N5540 X0.7612 Y-0.4916
N5545 G3 X0.7085 Y-0.4536 I-0.0742 J-0.0475
N5550 X0.5807 Y-0.4681 I-0.0475 J-0.1519
N5555 X0.5258 Y-0.5415 I0.044 J-0.0901
N5560 X0.5385 Y-0.6044 I0.096 J-0.0135
N5565 G1 X0.5511 Y-0.6254
N5570 X0.5554 Y-0.6327
N5575 G3 X0.6092 Y-0.6426 I0.0316 J0.0202
N5580 G1 X0.75 Y-0.5387
N5585 G3 X0.7612 Y-0.4916 I-0.0223 J0.0302
N5590 G1 X0.7585 Y-0.4866
N5595 X0.7462 Y-0.4625
N5600 G3 X0.6955 Y-0.4222 I-0.0767 J-0.0444
N5605 X0.5861 Y-0.4281 I-0.0483 J-0.1202
N5610 X0.5989 Y-0.4976 I0.0188 J-0.0324
N5615 G1 X0.706 Y-0.5152
N5620 G3 X0.7462 Y-0.4625 I0.0061 J0.037
N5625 G1 X0.7421 Y-0.4545
N5630 X0.7332 Y-0.4357
N5635 X0.7319 Y-0.433
N5640 G3 X0.6476 Y-0.3991 I-0.061 J-0.03
N5645 G1 X0.6419 Y-0.4017
N5650 X0.6366 Y-0.4047
N5655 X0.6315 Y-0.4082
N5660 X0.6268 Y-0.4122
N5665 X0.6225 Y-0.4167
N5670 G3 X0.6261 Y-0.5058 I0.0488 J-0.0427
N5675 X0.7319 Y-0.433 I0.0456 J0.047
N5680 G1 X0.7309 Y-0.4308
N5685 G3 X0.7198 Y-0.4038 I-0.1356 J-0.0399
N5690 X0.6747 Y-0.3908 I-0.031 J-0.0228
N5695 X0.6073 Y-0.4169 I0.0711 J-0.2834
N5700 G1 X0.5736 Y-0.4348
N5705 X0.5632 Y-0.4416
N5710 X0.5469 Y-0.4528
N5715 G3 X0.5102 Y-0.4998 I0.0508 J-0.0775
N5720 X0.5206 Y-0.5765 I0.0837 J-0.0278
N5725 X0.5877 Y-0.563 I0.0306 J0.0217
N5730 G1 X0.6036 Y-0.4927
N5735 G3 X0.5469 Y-0.4528 I-0.0366 J0.0082
N5740 G1 X0.5399 Y-0.4576
N5745 G3 X0.5027 Y-0.49 I0.1645 J-0.2265
N5750 X0.5005 Y-0.5498 I0.0314 J-0.0311
N5755 G1 X0.5042 Y-0.5534
N5760 X0.5083 Y-0.5565
N5765 X0.5127 Y-0.5591
N5770 X0.5174 Y-0.5612
N5775 X0.5223 Y-0.5627
N5780 X0.5274 Y-0.5636
N5785 G3 X0.5707 Y-0.5397 I0.0048 J0.0425
N5790 X0.5027 Y-0.49 I-0.0385 J0.0187
N5795 G1 X0.4949 Y-0.4978
N5800 G3 Y-0.5432 I0.0307 J-0.0227
N5805 G2 X0.5384 Y-0.6045 I-0.2978 J-0.2574
N5810 G1 X0.5409 Y-0.6072 Z-0.4148
N5815 X0.5433 Y-0.6099 Z-0.4141
N5820 X0.5456 Y-0.6126 Z-0.413
N5825 X0.5489 Y-0.6146 Z-0.4112
N5830 X0.552 Y-0.6166 Z-0.4089
N5835 X0.5548 Y-0.6183 Z-0.4061
N5840 X0.5574 Y-0.6191 Z-0.4031
N5845 X0.5596 Y-0.6198 Z-0.3997
N5850 X0.5613 Y-0.6203 Z-0.396
N5855 X0.5626 Y-0.6207 Z-0.3922
N5860 X0.5633 Y-0.6209 Z-0.3882
N5865 X0.5636 Y-0.621 Z-0.3841
N5870 G0 Z0.2
N5875 X3.3142 Y-0.9665
N5880 Z0.102
N5885 G3 X3.2657 Y-0.6135 Z0.0825 I-0.0243 J0.1765 F3.67
N5890 X3.3142 Y-0.9665 Z0.0629 I0.0243 J-0.1765
N5895 X3.2657 Y-0.6135 Z0.0434 I-0.0243 J0.1765
N5900 X3.3142 Y-0.9665 Z0.0238 I0.0243 J-0.1765
N5905 X3.2657 Y-0.6135 Z0.0043 I-0.0243 J0.1765
N5910 X3.3142 Y-0.9665 Z-0.0152 I0.0243 J-0.1765
N5915 X3.2657 Y-0.6135 Z-0.0348 I-0.0243 J0.1765
N5920 X3.3142 Y-0.9665 Z-0.0543 I0.0243 J-0.1765
N5925 X3.2657 Y-0.6135 Z-0.0739 I-0.0243 J0.1765
N5930 X3.3142 Y-0.9665 Z-0.0934 I0.0243 J-0.1765
N5935 X3.2657 Y-0.6135 Z-0.113 I-0.0243 J0.1765
N5940 X3.3142 Y-0.9665 Z-0.1325 I0.0243 J-0.1765
N5945 X3.2657 Y-0.6135 Z-0.152 I-0.0243 J0.1765
N5950 X3.3142 Y-0.9665 Z-0.1716 I0.0243 J-0.1765
N5955 X3.2657 Y-0.6135 Z-0.1911 I-0.0243 J0.1765
N5960 X3.3142 Y-0.9665 Z-0.2107 I0.0243 J-0.1765
N5965 X3.2657 Y-0.6135 Z-0.2302 I-0.0243 J0.1765
N5970 X3.3142 Y-0.9665 Z-0.2497 I0.0243 J-0.1765
N5975 X3.2657 Y-0.6135 Z-0.2693 I-0.0243 J0.1765
N5980 X3.3142 Y-0.9665 Z-0.2888 I0.0243 J-0.1765
N5985 X3.2657 Y-0.6135 Z-0.3084 I-0.0243 J0.1765
N5990 X3.3142 Y-0.9665 Z-0.3279 I0.0243 J-0.1765
N5995 X3.2657 Y-0.6135 Z-0.3475 I-0.0243 J0.1765
N6000 X3.3142 Y-0.9665 Z-0.367 I0.0243 J-0.1765
N6005 X3.2657 Y-0.6135 Z-0.3865 I-0.0243 J0.1765
N6010 X3.3142 Y-0.9665 Z-0.4061 I0.0243 J-0.1765
N6015 X3.4681 Y-0.79 Z-0.415 I-0.0243 J0.1765
N6020 X3.1118 I-0.1781 J0
N6025 X3.468 Y-0.7954 I0.1781 J0
N6030 G1 X3.4681 Y-0.79
N6035 X3.4688 Y-0.7433 F30.56
N6040 G3 X3.4654 Y-0.6842 I-0.0861 J0.0247
N6045 X3.3768 Y-0.5895 I-0.1572 J-0.0583
N6050 X3.2772 Y-0.5723 I-0.0755 J-0.1402
N6055 G1 X3.259 Y-0.5774
N6060 X3.2416 Y-0.5848
N6065 X3.2255 Y-0.5945
N6070 G2 X3.158 Y-0.6339 I-0.443 J0.6808
N6075 G3 X3.0764 Y-0.7431 I0.0839 J-0.1478
N6080 X3.0918 Y-0.8899 I0.1954 J-0.0537
N6085 X3.154 Y-0.9443 I0.1143 J0.0679
N6090 G2 X3.2203 Y-0.9818 I-0.3592 J-0.7132
N6095 G3 X3.3458 Y-1.0009 I0.0858 J0.1421
N6100 X3.4763 Y-0.9102 I-0.0408 J0.1982
N6105 G1 X3.4842 Y-0.8923
N6110 X3.4896 Y-0.8736
N6115 X3.4921 Y-0.8542
N6120 X3.4917 Y-0.8347
N6125 G2 X3.4916 Y-0.745 I0.6294 J0.0456
N6130 G1 X3.4934 Y-0.7338
N6135 X3.4952 Y-0.7243
N6140 G3 X3.4738 Y-0.6235 I-0.1374 J0.0235
N6145 X3.3705 Y-0.5394 I-0.1691 J-0.1023
N6150 X3.2581 Y-0.5661 I-0.0348 J-0.1038
N6155 G1 X3.248 Y-0.5762
N6160 X3.2367 Y-0.5861
N6165 X3.2255 Y-0.5945
N6170 G3 X3.2343 Y-0.6583 I0.0235 J-0.0292
N6175 G1 X3.4446 Y-0.7479
N6180 G3 X3.4952 Y-0.7243 I0.0147 J0.0345
N6185 G1 X3.5016 Y-0.7001
N6190 X3.5048 Y-0.6889
N6195 X3.5074 Y-0.6802
N6200 G3 X3.4995 Y-0.6052 I-0.1094 J0.0265
N6205 X3.4028 Y-0.5075 I-0.1687 J-0.0703
N6210 X3.2873 Y-0.535 I-0.0378 J-0.0971
N6215 G2 X3.258 Y-0.5661 I-0.7306 J0.6603
N6220 G3 X3.2712 Y-0.6263 I0.0275 J-0.0255
N6225 G1 X3.4575 Y-0.7029
N6230 G3 X3.5074 Y-0.6802 I0.0143 J0.0347
N6235 G1 X3.5115 Y-0.6664
N6240 X3.5155 Y-0.6551
N6245 X3.5199 Y-0.6439
N6250 G3 X3.5184 Y-0.5769 I-0.0942 J0.0313
N6255 X3.4176 Y-0.4715 I-0.1574 J-0.0497
N6260 X3.3074 Y-0.5094 I-0.0298 J-0.0925
N6265 X3.3182 Y-0.5605 I0.0318 J-0.0199
N6270 G1 X3.4648 Y-0.6594
N6275 G3 X3.5199 Y-0.6439 I0.021 J0.0311
N6280 G1 X3.5246 Y-0.6327
N6285 X3.5313 Y-0.6214
N6290 X3.5324 Y-0.6196
N6295 G3 X3.5408 Y-0.5612 I-0.0755 J0.0406
N6300 X3.4336 Y-0.4369 I-0.1559 J-0.0261
N6305 X3.322 Y-0.4856 I-0.0261 J-0.0925
N6310 X3.335 Y-0.5326 I0.034 J-0.0159
N6315 G1 X3.48 Y-0.6302
N6320 G3 X3.5324 Y-0.6196 I0.0209 J0.0311
N6325 G1 X3.5448 Y-0.5989
N6330 X3.55 Y-0.5908
N6335 G3 X3.5588 Y-0.5205 I-0.0797 J0.0457
N6340 X3.4912 Y-0.4266 I-0.1329 J-0.0244
N6345 G1 X3.4871 Y-0.4249
N6350 X3.4829 Y-0.4237
N6355 X3.4785 Y-0.423
N6360 X3.4741 Y-0.4228
N6365 X3.4697 Y-0.4232
N6370 X3.4653 Y-0.424
N6375 X3.4611 Y-0.4254
N6380 G3 X3.4399 Y-0.4746 I0.0135 J-0.035
N6385 G1 X3.4846 Y-0.5836
N6390 G3 X3.55 Y-0.5908 I0.0347 J0.0142
N6395 G1 X3.5521 Y-0.5877
N6400 G2 X3.5681 Y-0.5638 I0.5348 J-0.3423
N6405 G3 X3.58 Y-0.5155 I-0.0533 J0.0387
N6410 X3.5563 Y-0.4705 I-0.072 J-0.0092
N6415 X3.4535 Y-0.5019 I-0.0411 J-0.0495
N6420 X3.5682 Y-0.5638 I0.0639 J-0.0187
N6425 G1 X3.576 Y-0.554
N6430 G3 X3.5888 Y-0.5371 I-0.0463 J0.0485
N6435 X3.585 Y-0.4978 I-0.0346 J0.0166
N6440 X3.5168 Y-0.4416 I-0.2471 J-0.2306
N6445 G1 X3.5064 Y-0.4348
N6450 X3.4727 Y-0.4168
N6455 X3.4615 Y-0.4114
N6460 G3 X3.3384 Y-0.4531 I-0.041 J-0.0813
N6465 G1 X3.3369 Y-0.4573
N6470 X3.3359 Y-0.4616
N6475 X3.3354 Y-0.466
N6480 Y-0.4704
N6485 X3.336 Y-0.4748
N6490 X3.337 Y-0.4791
N6495 X3.3386 Y-0.4832
N6500 G3 X3.3847 Y-0.5037 I0.0343 J0.0151
N6505 G1 X3.4557 Y-0.4801
N6510 G3 X3.4615 Y-0.4114 I-0.0118 J0.0356
N6515 G1 X3.4502 Y-0.406
N6520 X3.439 Y-0.4014
N6525 X3.4277 Y-0.3974
N6530 X3.4103 Y-0.3922
N6535 G3 X3.3528 Y-0.4209 I-0.0136 J-0.0449
N6540 X3.3552 Y-0.4556 I0.0433 J-0.0143
N6545 X3.4366 Y-0.415 I0.0407 J0.0203
N6550 X3.4103 Y-0.3922 I-0.0407 J-0.0203
N6555 G1 X3.4053 Y-0.3907
N6560 G3 X3.3536 Y-0.4192 I-0.014 J-0.0358
N6565 G2 X3.3219 Y-0.4855 I-0.5728 J0.2322
N6570 G1 X3.3206 Y-0.4889
N6575 X3.3196 Y-0.4924
N6580 X3.3138 Y-0.5153
N6585 X3.2065 Y-0.9428
N6590 G3 X3.2203 Y-0.9818 I0.0364 J-0.0091
N6595 G1 X3.2255 Y-0.9855
N6600 X3.2367 Y-0.9939
N6605 X3.248 Y-1.0038
N6610 X3.2513 Y-1.0071
N6615 G3 X3.3208 Y-1.0358 I0.0747 J0.0822
N6620 X3.4476 Y-1.0023 I0.017 J0.1921
N6625 X3.5 Y-0.8738 I-0.0586 J0.0988
N6630 G1 X3.4952 Y-0.8557
N6635 X3.4934 Y-0.8462
N6640 X3.4917 Y-0.8347
N6645 G3 X3.431 Y-0.8104 I-0.0372 J-0.0049
N6650 G1 X3.2552 Y-0.9524
N6655 G3 X3.2513 Y-1.0071 I0.0236 J-0.0292
N6660 G1 X3.2592 Y-1.0151
N6665 X3.2704 Y-1.0268
N6670 X3.2804 Y-1.0372
N6675 G3 X3.3489 Y-1.0671 I0.0747 J0.078
N6680 X3.4751 Y-1.034 I0.0207 J0.1785
N6685 X3.5115 Y-0.9136 I-0.0635 J0.0849
N6690 G1 X3.5048 Y-0.8911
N6695 X3.5016 Y-0.8799
N6700 X3.5 Y-0.8738
N6705 G3 X3.4403 Y-0.8557 I-0.0359 J-0.0109
N6710 G1 X3.2846 Y-0.9834
N6715 G3 X3.2804 Y-1.0372 I0.0238 J-0.029
N6720 G1 X3.2817 Y-1.0386
N6725 G2 X3.3014 Y-1.0615 I-0.3181 J-0.2946
N6730 G3 X3.351 Y-1.0941 I0.0697 J0.052
N6735 X3.5192 Y-1.0449 I0.0459 J0.1552
N6740 X3.5311 Y-0.9606 I-0.0714 J0.053
N6745 G1 X3.5246 Y-0.9473
N6750 X3.5199 Y-0.9361
N6755 X3.5155 Y-0.9249
N6760 X3.5115 Y-0.9136
N6765 G3 X3.4533 Y-0.8981 I-0.0349 J-0.0138
N6770 G1 X3.3098 Y-1.0122
N6775 G3 X3.3013 Y-1.0615 I0.0233 J-0.0293
N6780 G1 X3.3154 Y-1.0823
N6785 X3.3188 Y-1.0884
N6790 G3 X3.3654 Y-1.1243 I0.0719 J0.0451
N6795 X3.506 Y-1.1078 I0.0537 J0.15
N6800 X3.5415 Y-0.9755 I-0.0465 J0.0834
N6805 G1 X3.5289 Y-0.9546
N6810 X3.5246 Y-0.9473
N6815 G3 X3.4708 Y-0.9374 I-0.0316 J-0.0202
N6820 G1 X3.33 Y-1.0413
N6825 G3 X3.3188 Y-1.0884 I0.0223 J-0.0302
N6830 G1 X3.3215 Y-1.0934
N6835 X3.3338 Y-1.1175
N6840 G3 X3.3787 Y-1.1556 I0.0745 J0.0423
N6845 X3.4939 Y-1.1519 I0.0539 J0.1195
N6850 G1 X3.4976 Y-1.1495
N6855 X3.5009 Y-1.1466
N6860 X3.5039 Y-1.1434
N6865 X3.5066 Y-1.1398
N6870 X3.5087 Y-1.1359
N6875 X3.5104 Y-1.1319
N6880 X3.5116 Y-1.1276
N6885 G3 X3.4811 Y-1.0824 I-0.0366 J0.0082
N6890 G1 X3.374 Y-1.0648
N6895 G3 X3.3338 Y-1.1175 I-0.0061 J-0.037
N6900 G1 X3.3379 Y-1.1255
N6905 X3.3468 Y-1.1443
N6910 X3.3481 Y-1.147
N6915 G3 X3.4324 Y-1.1809 I0.061 J0.03
N6920 G1 X3.438 Y-1.1784
N6925 X3.4434 Y-1.1753
N6930 X3.4485 Y-1.1718
N6935 X3.4532 Y-1.1678
N6940 X3.4575 Y-1.1633
N6945 G3 X3.4539 Y-1.0742 I-0.0487 J0.0427
N6950 X3.3481 Y-1.147 I-0.0456 J-0.047
N6955 G1 X3.3491 Y-1.1492
N6960 G3 X3.3602 Y-1.1762 I0.1355 J0.0398
N6965 X3.4053 Y-1.1892 I0.031 J0.0228
N6970 X3.4727 Y-1.1631 I-0.0711 J0.2834
N6975 G1 X3.5064 Y-1.1452
N6980 X3.5168 Y-1.1384
N6985 X3.5331 Y-1.1272
N6990 G3 X3.5633 Y-1.0949 I-0.0548 J0.0814
N6995 X3.5594 Y-1.0035 I-0.0769 J0.0425
N7000 X3.4923 Y-1.017 I-0.0306 J-0.0217
N7005 G1 X3.4764 Y-1.0873
N7010 G3 X3.5331 Y-1.1272 I0.0366 J-0.0083
N7015 G1 X3.5401 Y-1.1224
N7020 G3 X3.5773 Y-1.09 I-0.1645 J0.2265
N7025 X3.5795 Y-1.0302 I-0.0314 J0.0311
N7030 G1 X3.5758 Y-1.0266
N7035 X3.5717 Y-1.0235
N7040 X3.5673 Y-1.0209
N7045 X3.5626 Y-1.0188
N7050 X3.5577 Y-1.0173
N7055 X3.5526 Y-1.0164
N7060 G3 X3.5093 Y-1.0403 I-0.0048 J-0.0425
N7065 X3.5773 Y-1.09 I0.0385 J-0.0187
N7070 G1 X3.5851 Y-1.0822
N7075 G3 Y-1.0368 I-0.0307 J0.0227
N7080 G2 X3.5416 Y-0.9755 I0.2978 J0.2574
N7085 G1 X3.539 Y-0.9721
N7090 X3.5361 Y-0.969
N7095 X3.52 Y-0.9534
N7100 X3.1974 Y-0.6421
N7105 G3 X3.1581 Y-0.634 I-0.026 J-0.027
N7110 G1 X3.1468 Y-0.6387
N7115 X3.1244 Y-0.6473
N7120 X3.121 Y-0.6481
N7125 G3 X3.0614 Y-0.6942 I0.0338 J-0.1052
N7130 X3.0273 Y-0.8213 I0.1583 J-0.1105
N7135 X3.0957 Y-0.9241 I0.1127 J0.0008
N7140 G1 X3.1131 Y-0.9298
N7145 G3 X3.1587 Y-0.8946 I0.0081 J0.0366
N7150 G1 X3.1665 Y-0.6862
N7155 G3 X3.121 Y-0.6481 I-0.0375 J0.0014
N7160 G1 X3.1131 Y-0.6502
N7165 X3.0906 Y-0.6556
N7170 X3.0817 Y-0.6576
N7175 G3 X3.0213 Y-0.7014 I0.0284 J-0.1028
N7180 X2.9866 Y-0.8344 I0.1445 J-0.1088
N7185 X3.0682 Y-0.9193 I0.102 J0.0164
N7190 G1 X3.0927 Y-0.9249
N7195 X3.1131 Y-0.9298
N7200 G3 X3.1577 Y-0.8871 I0.0076 J0.0367
N7205 G1 X3.1257 Y-0.6885
N7210 G3 X3.0817 Y-0.6576 I-0.037 J-0.006
N7215 G1 X3.0682 Y-0.6607
N7220 X3.0569 Y-0.663
N7225 X3.048 Y-0.6639
N7230 G3 X2.9904 Y-0.6964 I0.0146 J-0.0932
N7235 X2.9472 Y-0.8349 I0.1196 J-0.1133
N7240 X3.0346 Y-0.9148 I0.0973 J0.0186
N7245 X3.0745 Y-0.8802 I0.0024 J0.0374
N7250 G1 X3.0878 Y-0.7041
N7255 G3 X3.048 Y-0.6639 I-0.0374 J0.0028
N7260 G1 X3.0345 Y-0.6652
N7265 X3.0232 Y-0.6656
N7270 X3.0175 Y-0.6655
N7275 G3 X2.9581 Y-0.692 I0.0035 J-0.0877
N7280 X2.9102 Y-0.8424 I0.1055 J-0.1164
N7285 X3.0071 Y-0.9149 I0.0941 J0.0247
N7290 G2 X3.0682 Y-0.9192 I0.0148 J-0.2217
N7295 G1 X3.0726 Y-0.9197
N7300 X3.077
N7305 X3.0813 Y-0.9191
N7310 X3.0856 Y-0.918
N7315 X3.0897 Y-0.9165
N7320 X3.0937 Y-0.9144
N7325 X3.0973 Y-0.9119
N7330 G3 X3.1099 Y-0.8705 I-0.023 J0.0296
N7335 G1 X3.0506 Y-0.6911
N7340 G3 X3.0175 Y-0.6655 I-0.0356 J-0.0118
N7345 G1 X3.0007 Y-0.665
N7350 X2.9895 Y-0.6645
N7355 X2.9837 Y-0.6642
N7360 G3 X2.9235 Y-0.6881 I0.0006 J-0.0892
N7365 X2.8738 Y-0.7819 I0.0819 J-0.1035
N7370 G1 X2.8739 Y-0.7864
N7375 X2.8745 Y-0.7907
N7380 X2.8757 Y-0.795
N7385 X2.8773 Y-0.7991
N7390 X2.8794 Y-0.803
N7395 X2.882 Y-0.8066
N7400 X2.8849 Y-0.8099
N7405 G3 X2.9399 Y-0.8074 I0.0264 J0.0267
N7410 G1 X3.009 Y-0.7257
N7415 G3 X2.9837 Y-0.6642 I-0.0286 J0.0242
N7420 G1 X2.967 Y-0.6633
N7425 X2.9558 Y-0.6623
N7430 X2.9524 Y-0.6618
N7435 G3 X2.916 Y-0.669 I-0.0073 J-0.0588
N7440 X2.8803 Y-0.7197 I0.0318 J-0.0603
N7445 X2.9546 Y-0.7877 I0.0621 J-0.0068
N7450 X2.9524 Y-0.6618 I-0.0125 J0.0628
N7455 G1 X2.9446 Y-0.6608
N7460 X2.9333 Y-0.6587
N7465 G3 X2.887 Y-0.6889 I-0.0089 J-0.037
N7470 X2.8759 Y-0.7563 I0.3362 J-0.0898
N7475 X2.8758 Y-0.8237 I0.248 J-0.034
N7480 G1 X2.877 Y-0.835
N7485 G3 X2.9009 Y-0.8886 I0.0925 J0.0091
N7490 X2.9704 Y-0.9166 I0.0648 J0.0607
N7495 X2.992 Y-0.8512 I-0.0033 J0.0374
N7500 G1 X2.9393 Y-0.8043
N7505 G3 X2.877 Y-0.835 I-0.0249 J-0.028
N7510 G1 X2.8799 Y-0.8574
N7515 X2.8815 Y-0.8687
N7520 X2.8857 Y-0.8861
N7525 G3 X2.9389 Y-0.9202 I0.0444 J0.0107
N7530 G1 X2.9438 Y-0.9188
N7535 X2.9486 Y-0.9168
N7540 X2.953 Y-0.9143
N7545 X2.9572 Y-0.9112
N7550 X2.961 Y-0.9077
N7555 X2.9643 Y-0.9038
N7560 G3 X2.9672 Y-0.855 I-0.0352 J0.0266
N7565 X2.8857 Y-0.8861 I-0.0382 J-0.0222
N7570 G1 X2.8869 Y-0.8911
N7575 G3 X2.9333 Y-0.9214 I0.0376 J0.007
N7580 G2 X3.0071 Y-0.915 I0.0692 J-0.3726
N7585 G1 X3.0115 Y-0.9145
N7590 X3.0158 Y-0.9134
N7595 X3.0199 Y-0.9118
N7600 X3.0238 Y-0.9097
N7605 X3.0275 Y-0.9072
N7610 X3.0308 Y-0.9043
N7615 X3.0338 Y-0.901
N7620 X3.0366 Y-0.8975 Z-0.4147
N7625 X3.0394 Y-0.8941 Z-0.4139
N7630 X3.0421 Y-0.8907 Z-0.4126
N7635 X3.0447 Y-0.8875 Z-0.4107
N7640 X3.0472 Y-0.8845 Z-0.4084
N7645 X3.0494 Y-0.8817 Z-0.4056
N7650 X3.0514 Y-0.8792 Z-0.4024
N7655 X3.0532 Y-0.8771 Z-0.3988
N7660 X3.0547 Y-0.8753 Z-0.3949
N7665 X3.0558 Y-0.8738 Z-0.3908
N7670 X3.0567 Y-0.8728 Z-0.3865
N7675 X3.0572 Y-0.8721 Z-0.382
N7680 X3.0574 Y-0.8719 Z-0.3775
N7685 G0 Z0.6
(2D Contour1)
N7690 M9
N7695 T3 M6
N7700 T1
N7705 S11500 M3
N7710 M8
N7715 X3.2018 Y-1.7362
N7720 Z0.6
N7725 Z0.2
N7730 G1 Z-0.67 F10
N7735 Y-1.7359 Z-0.6739 F50
N7740 X3.2019 Y-1.735 Z-0.6777
N7745 X3.2021 Y-1.7335 Z-0.6813
N7750 X3.2024 Y-1.7315 Z-0.6847
N7755 X3.2027 Y-1.729 Z-0.6877
N7760 X3.203 Y-1.726 Z-0.6902
N7765 X3.2034 Y-1.7227 Z-0.6923
N7770 X3.2038 Y-1.7191 Z-0.6938
N7775 X3.2043 Y-1.7153 Z-0.6947
N7780 X3.2048 Y-1.7114 Z-0.695
N7785 X3.2077 Y-1.6866
N7790 G17 G3 X3.1859 Y-1.6588 I-0.0248 J0.003
N7795 G2 X2.9535 Y-1.5977 I0.1041 J0.8688
N7800 G3 X1.1265 I-0.9135 J-2.1923
N7805 G2 X0.4535 Y0.0177 I-0.3365 J0.8077
N7810 X1.1265 I0.3365 J-0.8077
N7815 G3 X2.9535 I0.9135 J2.1923
N7820 G2 X4.0481 Y-0.3531 I0.3365 J-0.8077
N7825 X4.165 Y-0.79 I-0.7581 J-0.4369
N7830 X3.1859 Y-1.6588 I-0.875 J0
N7835 G3 X3.1581 Y-1.6806 I-0.003 J-0.0248
N7840 G1 X3.1551 Y-1.7055
N7845 X3.1547 Y-1.7093 Z-0.6947
N7850 X3.1542 Y-1.7131 Z-0.6938
N7855 X3.1538 Y-1.7167 Z-0.6923
N7860 X3.1534 Y-1.72 Z-0.6902
N7865 X3.153 Y-1.723 Z-0.6877
N7870 X3.1527 Y-1.7255 Z-0.6847
N7875 X3.1525 Y-1.7276 Z-0.6813
N7880 X3.1523 Y-1.7291 Z-0.6777
N7885 X3.1522 Y-1.73 Z-0.6739
N7890 X3.1521 Y-1.7303 Z-0.67
N7895 G0 Z0.6
(2D Contour2)
N7900 X1.1342 Y0.1012
N7905 Z0.6
N7910 Z0.2
N7915 G1 Z-0.265 F10
N7920 X1.1341 Y0.1009 Z-0.2689 F50
N7925 X1.1338 Y0.1 Z-0.2727
N7930 X1.1332 Y0.0986 Z-0.2763
N7935 X1.1324 Y0.0967 Z-0.2797
N7940 X1.1314 Y0.0944 Z-0.2827
N7945 X1.1303 Y0.0916 Z-0.2852
N7950 X1.129 Y0.0886 Z-0.2873
N7955 X1.1276 Y0.0852 Z-0.2888
N7960 X1.1261 Y0.0817 Z-0.2897
N7965 X1.1246 Y0.0781 Z-0.29
N7970 X1.115 Y0.055
N7975 G3 X1.1285 Y0.0223 I0.0231 J-0.0096
N7980 G2 X1.6392 Y-0.5591 I-0.3385 J-0.8123
N7985 G3 X1.6894 Y-0.5975 I0.0502 J0.0136
N7990 G1 X2.3906
N7995 G3 X2.4408 Y-0.5591 I0 J0.052
N8000 G2 X2.9515 Y0.0223 I0.8492 J-0.2309
N8005 G3 X2.965 Y0.055 I-0.0096 J0.0231
N8010 G1 X2.9554 Y0.0781
N8015 X2.9539 Y0.0817 Z-0.2897
N8020 X2.9524 Y0.0852 Z-0.2888
N8025 X2.951 Y0.0886 Z-0.2873
N8030 X2.9497 Y0.0916 Z-0.2852
N8035 X2.9486 Y0.0944 Z-0.2827
N8040 X2.9476 Y0.0967 Z-0.2797
N8045 X2.9468 Y0.0986 Z-0.2763
N8050 X2.9462 Y0.1 Z-0.2727
N8055 X2.9459 Y0.1009 Z-0.2689
N8060 X2.9458 Y0.1012 Z-0.265
N8065 G0 Z0.2
N8070 Y-1.6812
N8075 G1 Z-0.265 F10
N8080 X2.9459 Y-1.6809 Z-0.2689 F50
N8085 X2.9462 Y-1.68 Z-0.2727
N8090 X2.9468 Y-1.6786 Z-0.2763
N8095 X2.9476 Y-1.6767 Z-0.2797
N8100 X2.9486 Y-1.6744 Z-0.2827
N8105 X2.9497 Y-1.6716 Z-0.2852
N8110 X2.951 Y-1.6686 Z-0.2873
N8115 X2.9524 Y-1.6652 Z-0.2888
N8120 X2.9539 Y-1.6617 Z-0.2897
N8125 X2.9554 Y-1.6581 Z-0.29
N8130 X2.965 Y-1.635
N8135 G3 X2.9515 Y-1.6023 I-0.0231 J0.0096
N8140 G2 X2.4408 Y-1.0209 I0.3385 J0.8123
N8145 G3 X2.3906 Y-0.9825 I-0.0502 J-0.0136
N8150 G1 X1.6894
N8155 G3 X1.6392 Y-1.0209 I0 J-0.052
N8160 G2 X1.1285 Y-1.6023 I-0.8492 J0.2309
N8165 G3 X1.115 Y-1.635 I0.0096 J-0.0231
N8170 G1 X1.1246 Y-1.6581
N8175 X1.1261 Y-1.6617 Z-0.2897
N8180 X1.1276 Y-1.6652 Z-0.2888
N8185 X1.129 Y-1.6686 Z-0.2873
N8190 X1.1303 Y-1.6716 Z-0.2852
N8195 X1.1314 Y-1.6744 Z-0.2827
N8200 X1.1324 Y-1.6767 Z-0.2797
N8205 X1.1332 Y-1.6786 Z-0.2763
N8210 X1.1338 Y-1.68 Z-0.2727
N8215 X1.1341 Y-1.6809 Z-0.2689
N8220 X1.1342 Y-1.6812 Z-0.265
N8225 G0 Z0.2
N8230 X1.1323 Y0.0965
N8235 G1 Z-0.265 F10
N8240 X1.1322 Y0.0963 Z-0.2689 F50
N8245 X1.1318 Y0.0954 Z-0.2727
N8250 X1.1313 Y0.094 Z-0.2763
N8255 X1.1305 Y0.0921 Z-0.2797
N8260 X1.1295 Y0.0898 Z-0.2827
N8265 X1.1283 Y0.087 Z-0.2852
N8270 X1.1271 Y0.0839 Z-0.2873
N8275 X1.1257 Y0.0806 Z-0.2888
N8280 X1.1242 Y0.0771 Z-0.2897
N8285 X1.1227 Y0.0735 Z-0.29
N8290 X1.1131 Y0.0504
N8295 G3 X1.1265 Y0.0177 I0.0231 J-0.0096
N8300 G2 X1.6344 Y-0.5605 I-0.3365 J-0.8077
N8305 G3 X1.6894 Y-0.6025 I0.055 J0.015
N8310 G1 X2.3906
N8315 G3 X2.4456 Y-0.5605 I0 J0.057
N8320 G2 X2.9535 Y0.0177 I0.8444 J-0.2295
N8325 G3 X2.9669 Y0.0504 I-0.0096 J0.0231
N8330 G1 X2.9573 Y0.0735
N8335 X2.9558 Y0.0771 Z-0.2897
N8340 X2.9543 Y0.0806 Z-0.2888
N8345 X2.9529 Y0.0839 Z-0.2873
N8350 X2.9517 Y0.087 Z-0.2852
N8355 X2.9505 Y0.0898 Z-0.2827
N8360 X2.9495 Y0.0921 Z-0.2797
N8365 X2.9487 Y0.094 Z-0.2763
N8370 X2.9482 Y0.0954 Z-0.2727
N8375 X2.9478 Y0.0963 Z-0.2689
N8380 X2.9477 Y0.0965 Z-0.265
N8385 G0 Z0.2
N8390 Y-1.6765
N8395 G1 Z-0.265 F10
N8400 X2.9478 Y-1.6763 Z-0.2689 F50
N8405 X2.9482 Y-1.6754 Z-0.2727
N8410 X2.9487 Y-1.674 Z-0.2763
N8415 X2.9495 Y-1.6721 Z-0.2797
N8420 X2.9505 Y-1.6698 Z-0.2827
N8425 X2.9517 Y-1.667 Z-0.2852
N8430 X2.9529 Y-1.6639 Z-0.2873
N8435 X2.9543 Y-1.6606 Z-0.2888
N8440 X2.9558 Y-1.6571 Z-0.2897
N8445 X2.9573 Y-1.6535 Z-0.29
N8450 X2.9669 Y-1.6304
N8455 G3 X2.9535 Y-1.5977 I-0.0231 J0.0096
N8460 G2 X2.4456 Y-1.0195 I0.3365 J0.8077
N8465 G3 X2.3906 Y-0.9775 I-0.055 J-0.015
N8470 G1 X1.6894
N8475 G3 X1.6344 Y-1.0195 I0 J-0.057
N8480 G2 X1.1265 Y-1.5977 I-0.8444 J0.2295
N8485 G3 X1.1131 Y-1.6304 I0.0096 J-0.0231
N8490 G1 X1.1227 Y-1.6535
N8495 X1.1242 Y-1.6571 Z-0.2897
N8500 X1.1257 Y-1.6606 Z-0.2888
N8505 X1.1271 Y-1.6639 Z-0.2873
N8510 X1.1283 Y-1.667 Z-0.2852
N8515 X1.1295 Y-1.6698 Z-0.2827
N8520 X1.1305 Y-1.6721 Z-0.2797
N8525 X1.1313 Y-1.674 Z-0.2763
N8530 X1.1318 Y-1.6754 Z-0.2727
N8535 X1.1322 Y-1.6763 Z-0.2689
N8540 X1.1323 Y-1.6765 Z-0.265
N8545 G0 Z0.6
N8550 X3.4912 Y-0.815
N8555 Z0.2
N8560 G1 Z-0.39 F10
N8565 G18 G2 X3.5162 Z-0.415 I0.025 K0 F50
N8570 G1 X3.5412
N8575 G17 G3 X3.5662 Y-0.79 I0 J0.025
N8580 G2 X3.6042 Y-0.6475 I0.2863 J0
N8585 X3.6992 Y-0.5483 I0.2483 J-0.1425
N8590 G3 X3.7052 Y-0.5205 I-0.0107 J0.0169
N8595 X3.3158 Y-0.2957 I-0.4152 J-0.2695
N8600 X3.2947 Y-0.3148 I-0.001 J-0.02
N8605 G2 X2.8761 Y-0.5565 I-0.286 J0.012
N8610 G3 X2.849 Y-0.5652 I-0.0093 J-0.0177
N8615 Y-1.0148 I0.441 J-0.2248
N8620 X2.8761 Y-1.0235 I0.0178 J0.0091
N8625 G2 X3.2947 Y-1.2652 I0.1327 J-0.2537
N8630 G3 X3.3158 Y-1.2843 I0.02 J0.0008
N8635 X3.7052 Y-1.0595 I-0.0258 J0.4943
N8640 X3.6992 Y-1.0317 I-0.0168 J0.0109
N8645 G2 X3.5662 Y-0.79 I0.1533 J0.2417
N8650 G1 X3.5666 Y-0.7884
N8655 X3.5674 Y-0.7871
N8660 X3.5688 Y-0.7862
N8665 X3.5701 Y-0.7854
N8670 X3.571 Y-0.7841
N8675 X3.5713 Y-0.7825
N8680 G2 X3.7018 Y-0.5525 I0.2812 J-0.0075
N8685 G3 X3.7094 Y-0.5178 I-0.0134 J0.0211
N8690 X3.316 Y-0.2907 I-0.4194 J-0.2722
N8695 X3.2898 Y-0.3146 I-0.0013 J-0.025
N8700 G2 X2.8784 Y-0.5521 I-0.281 J0.0117
N8705 G3 X2.8446 Y-0.5629 I-0.0116 J-0.0222
N8710 Y-1.0171 I0.4454 J-0.2271
N8715 X2.8784 Y-1.0279 I0.0223 J0.0114
N8720 G2 X3.2898 Y-1.2654 I0.1303 J-0.2492
N8725 G3 X3.316 Y-1.2893 I0.025 J0.001
N8730 X3.7094 Y-1.0622 I-0.026 J0.4993
N8735 X3.7018 Y-1.0275 I-0.021 J0.0136
N8740 G2 X3.6085 Y-0.93 I0.1507 J0.2375
N8745 X3.5713 Y-0.7825 I0.244 J0.14
N8750 G3 X3.547 Y-0.7568 I-0.025 J0.0007
N8755 G1 X3.522 Y-0.7562
N8760 X3.5181 Y-0.7561 Z-0.4147
N8765 X3.5143 Y-0.756 Z-0.4138
N8770 X3.5107 Y-0.7559 Z-0.4123
N8775 X3.5073 Y-0.7558 Z-0.4102
N8780 X3.5044 Y-0.7557 Z-0.4077
N8785 X3.5018 Y-0.7556 Z-0.4047
N8790 X3.4998 Z-0.4013
N8795 X3.4983 Y-0.7555 Z-0.3977
N8800 X3.4973 Z-0.3939
N8805 X3.497 Z-0.39
N8810 G0 Z0.2
N8815 X0.9123 Y-0.6282
N8820 G1 Z-0.39 F10
N8825 X0.9124 Y-0.6279 Z-0.3939 F50
N8830 X0.9129 Y-0.6272 Z-0.3977
N8835 X0.9136 Y-0.6259 Z-0.4013
N8840 X0.9147 Y-0.6241 Z-0.4047
N8845 X0.9159 Y-0.6219 Z-0.4077
N8850 X0.9174 Y-0.6193 Z-0.4102
N8855 X0.9191 Y-0.6164 Z-0.4123
N8860 X0.9209 Y-0.6133 Z-0.4138
N8865 X0.9228 Y-0.6099 Z-0.4147
N8870 X0.9248 Y-0.6066 Z-0.415
N8875 X0.9373 Y-0.5849
N8880 G3 X0.9281 Y-0.5508 I-0.0217 J0.0125
N8885 G2 X0.7853 Y-0.3148 I0.1431 J0.2479
N8890 G3 X0.7642 Y-0.2957 I-0.02 J-0.0008
N8895 X0.3748 Y-0.5205 I0.0258 J-0.4943
N8900 X0.3808 Y-0.5483 I0.0168 J-0.0109
N8905 G2 Y-1.0317 I-0.1533 J-0.2417
N8910 G3 X0.3748 Y-1.0595 I0.0107 J-0.0169
N8915 X0.7642 Y-1.2843 I0.4152 J0.2695
N8920 X0.7853 Y-1.2652 I0.001 J0.02
N8925 G2 X1.2039 Y-1.0235 I0.286 J-0.0119
N8930 G3 X1.231 Y-1.0148 I0.0093 J0.0177
N8935 Y-0.5652 I-0.441 J0.2248
N8940 X1.2039 Y-0.5565 I-0.0178 J-0.0091
N8945 G2 X0.9281 Y-0.5508 I-0.1327 J0.2537
N8950 G1 X0.9269 Y-0.5497
N8955 X0.9262 Y-0.5483
N8960 X0.9261 Y-0.5467
N8965 X0.926 Y-0.5451
N8970 X0.9254 Y-0.5437
N8975 X0.9242 Y-0.5426
N8980 G2 X0.7902 Y-0.3146 I0.1471 J0.2397
N8985 G3 X0.764 Y-0.2907 I-0.025 J-0.001
N8990 X0.3706 Y-0.5178 I0.026 J-0.4993
N8995 X0.3782 Y-0.5525 I0.021 J-0.0136
N9000 G2 Y-1.0275 I-0.1507 J-0.2375
N9005 G3 X0.3706 Y-1.0622 I0.0134 J-0.0211
N9010 X0.764 Y-1.2893 I0.4194 J0.2722
N9015 X0.7902 Y-1.2654 I0.0013 J0.025
N9020 G2 X1.2016 Y-1.0279 I0.281 J-0.0117
N9025 G3 X1.2354 Y-1.0171 I0.0116 J0.0222
N9030 Y-0.5629 I-0.4454 J0.2271
N9035 X1.2016 Y-0.5521 I-0.0223 J-0.0114
N9040 G2 X0.9242 Y-0.5426 I-0.1303 J0.2492
N9045 G3 X0.8898 Y-0.5508 I-0.0131 J-0.0213
N9050 G1 X0.8767 Y-0.5721
N9055 X0.8747 Y-0.5755 Z-0.4147
N9060 X0.8727 Y-0.5787 Z-0.4138
N9065 X0.8708 Y-0.5818 Z-0.4123
N9070 X0.869 Y-0.5847 Z-0.4102
N9075 X0.8675 Y-0.5872 Z-0.4077
N9080 X0.8662 Y-0.5894 Z-0.4047
N9085 X0.8651 Y-0.5911 Z-0.4013
N9090 X0.8643 Y-0.5924 Z-0.3977
N9095 X0.8638 Y-0.5932 Z-0.3939
N9100 X0.8637 Y-0.5934 Z-0.39
N9105 G0 Z0.6
N9110 M9
N9115 M2
